!!!!SEGMENT: pl-sa--36-a-i-36--001_maldere-pierre-van--symphonia-ex-d-allegro-assai.krn
!!!cenid: 17xx:684
!!!COM: Maldere, Pierre van
!!!COM-rismID: pe30002048
!!!CDT: 1729/10/16-1768/11/01
!!!CNT: Flemish
!!!OPR: Symphonia ex D
!!!OTL: Allegro assai
!!!OMV: 001
!!!PDT:
!!!AGN: Secular
!!!SMS-siglum: PL-SA
!!!SMS-shelfmark: 36/A I 36
!!!SMS-shelfwork: 001-001 M
!!!SMS-variant:
!!!SMS-altvar:
!!!NIFC-rismSourceID: 1001034985
!!!NIFC-islandoraID:
!!!URL-pdf-islandora:
!!!URL-scan: https://bc.bdsandomierz.pl/dlibra/publication/1294/edition/1262/content @EN{Scan on Cyfrowa Biblioteka Diecezjalna w Sandomierzu} @PL{Skany w portalu Cyfrowa Biblioteka Diecezjalna w Sandomierzu}
!!!ONB-nifc: UWAGA: części Symphonii: Allegro assai, Largo, Vivace
!!!AIN: 2 cor 1 empty 2 oboe 1 viola 2 violn
!!!key:
**kern	**dynam	**kern	**dynam	**kern	**dynam	**kern	**dynam	**kern	**dynam	**kern	**dynam	**kern	**kern	**dynam
*part8	*part8	*part7	*part7	*part6	*part6	*part5	*part5	*part4	*part4	*part3	*part3	*part2	*part1	*part1
*staff8	*	*staff7	*	*staff6	*	*staff5	*	*staff4	*	*staff3	*	*staff2	*staff1	*
*Iempty	*	*Iviola	*	*Ivioln	*	*Ivioln	*	*Icor	*	*Icor	*	*Ioboe	*Ioboe	*
*I"Baſso:.	*	*I"Alto:. Viola:.	*	*I"Violino. 2n.do	*	*I"Violino 1.mo	*	*I"Corno: 2.do Ex. D:	*	*I"Corno 1mo Ex. D:	*	*I"Oboe 2.do	*I"Oboe 1.mo	*
*I'B	*	*I'va	*	*I'vn 2	*	*I'vn 1	*	*I'c 2 ex D	*	*I'c 1 ex D	*	*I'ob 2	*I'ob 1	*
*group3	*	*group3	*	*group3	*	*group3	*	*group2	*	*group2	*	*group1	*group1	*
*clefF4	*	*clefC3	*	*clefG2	*	*clefG2	*	*clefG2	*	*clefG2	*	*clefG2	*clefG2	*
*	*	*	*	*	*	*	*	*ITrd-1c-2	*	*ITrd-1c-2	*	*	*	*
*k[f#c#]	*	*k[f#c#]	*	*k[f#c#]	*	*k[f#c#]	*	*k[f#c#]	*	*k[f#c#]	*	*k[f#c#]	*k[f#c#]	*
*D:	*	*D:	*	*D:	*	*D:	*	*	*	*	*	*D:	*D:	*
*M4/4	*	*M4/4	*	*M4/4	*	*M4/4	*	*M4/4	*	*M4/4	*	*M4/4	*M4/4	*
*met(c)	*	*met(c)	*	*met(c)	*	*met(c)	*	*met(c)	*	*met(c)	*	*met(c)	*met(c)	*
=1	=1	=1	=1	=1	=1	=1	=1	=1	=1	=1	=1	=1	=1	=1
*2\right	*	*2\right	*	*	*	*2\right	*	*2\right	*	*2\right	*	*2\right	*2\right	*
!LO:TX:a:t=P:problem= metrum C z kropką w środku	!	!LO:TX:a:t=P:problem= metrum C z kropką w środku	!	!LO:TX:a:t=P:problem= metrum C z kropką w środku	!	!LO:TX:a:t=P:problem= metrum C z kropką w środku	!	!LO:TX:a:t=P:problem= metrum C z kropką w środku	!	!LO:TX:a:t=P:problem= metrum C z kropką w środku	!	!LO:TX:a:t=P:problem= metrum C z kropką w środku	!LO:TX:a:t=P:problem= metrum C z kropką w środku	!
!LO:TX:a:t=Allo aſai	!	!LO:TX:a:t=Allo aſai	!	!LO:TX:a:t=Allo aſai&colon;	!	!LO:TX:a:t=Allo aſai	!	!LO:TX:a:t=Allo. aſai	!	!LO:TX:a:t=Allo aſai	!	!LO:TX:a:t=Allo aſai	!LO:TX:a:t=Allo assai&colon;	!
!LO:TX:a:t=Synfonia	!	!LO:TX:a:t=Synfonia	!	!LO:TX:a:t=Synfonia	!	!LO:TX:a:t=Synfonia	!	!LO:TX:a:t=Synfonia	!	!LO:TX:a:t=Synfonia	!	!LO:TX:a:t=Synfonia	!LO:TX:a:t=Synfonia	!
8D\L	.	8f#\L	.	4.d`/	.	4.d/	.	4d/	.	4dd\	.	4f#/	4dd\	.
8F#\	.	8a\	.	.	.	.	.	.	.	.	.	.	.	.
8G\	.	8b\	.	.	.	.	.	4r	.	4r	.	4r	4r	.
8E\J	.	8g\J	.	(16e/LL	.	(16e/LL	.	.	.	.	.	.	.	.
.	.	.	.	16c#/JJ)	.	16c#/JJ)	.	.	.	.	.	.	.	.
!	!	!	!	!LO:TX:a:t=P:problem= niepełna miara taktu - ćwierćnuta	!	!	!	!	!	!	!	!	!	!
!	!	!	!	!LO:N:vis=4	!	!	!	!	!	!	!	!	!	!
8D\L	.	8f#\L	.	4.d`/	.	4.d/	.	4d/	.	4dd\	.	4f#/	4dd\	.
8F#\	.	8a\	.	.	.	.	.	.	.	.	.	.	.	.
8G\	.	8b\	.	.	.	.	.	4r	.	4r	.	4r	4r	.
8D\J	.	8g\J	.	(16e/LL	.	(16e/LL	.	.	.	.	.	.	.	.
.	.	.	.	16c#/JJ)	.	16d/JJ)	.	.	.	.	.	.	.	.
=2	=2	=2	=2	=2	=2	=2	=2	=2	=2	=2	=2	=2	=2	=2
8D\L	.	8f#\L	.	4.d`/	.	4.d/	.	2d/	.	2dd\	.	2f#/	2dd\	.
8F#\	.	8d\	.	.	.	.	.	.	.	.	.	.	.	.
8B\	.	8dd\	.	.	.	.	.	.	.	.	.	.	.	.
8F#\J	.	8a\J	.	(16g/LL	.	(16g/LL	.	.	.	.	.	.	.	.
.	.	.	.	16f#/JJ)	.	16f#/JJ)	.	.	.	.	.	.	.	.
!LO:TX:t=P:problem=mixed beam	!	!	!	!	!	!	!	!	!	!	!	!	!	!
8G\L	.	8b\L	.	4.e`/	.	4.e/	.	4r	.	4r	.	4r	4r	.
8E\	.	8g\	.	.	.	.	.	.	.	.	.	.	.	.
8A\	.	8e\	.	.	.	.	.	4a/	.	4ee\	.	4a/	4ee\	.
8AA/J	.	8a\J	.	(16a/LL	.	(16a/LL	.	.	.	.	.	.	.	.
.	.	.	.	16c#/JJ)	.	16c#/JJ)	.	.	.	.	.	.	.	.
=3	=3	=3	=3	=3	=3	=3	=3	=3	=3	=3	=3	=3	=3	=3
8D\L	.	8f#\L	.	4.d`/	.	4.d/	.	4d/	.	4ff#\	.	4f#/	4ff#\	.
8F#\	.	8a\	.	.	.	.	.	.	.	.	.	.	.	.
8A\	.	8b\	.	.	.	.	.	4r	.	4r	.	4r	4r	.
8E\J	.	8g\J	.	(16e/LL	.	(16e/LL	.	.	.	.	.	.	.	.
.	.	.	.	16c#/JJ)	.	16c#/JJ)	.	.	.	.	.	.	.	.
8D\L	.	8f#\L	.	4.d/	.	4.d/	.	4d/	.	4dd\	.	4f#/	4dd\	.
8F#\	.	8a\	.	.	.	.	.	.	.	.	.	.	.	.
8G\	.	8b\	.	.	.	.	.	4r	.	4r	.	4r	4r	.
8E\J	.	8g\J	.	(16e/LL	.	(16e/LL	.	.	.	.	.	.	.	.
.	.	.	.	16c#/JJ)	.	16c#/JJ)	.	.	.	.	.	.	.	.
=4	=4	=4	=4	=4	=4	=4	=4	=4	=4	=4	=4	=4	=4	=4
8D\L	.	8f#\L	.	4.d/	.	4.d/	.	2d/	.	2dd\	.	2f#/	2dd\	.
8F#\	.	8d\	.	.	.	.	.	.	.	.	.	.	.	.
8B\	.	8dd\	.	.	.	.	.	.	.	.	.	.	.	.
8F#\J	.	8a\J	.	(16g/LL	.	(16g/LL	.	.	.	.	.	.	.	.
.	.	.	.	16f#/JJ)	.	16f#/JJ)	.	.	.	.	.	.	.	.
!LO:LB:g=original	!	!	!	!	!	!	!	!	!	!	!	!	!	!
!LO:TX:t=P:problem=mixed beam	!	!	!	!	!	!	!	!	!	!	!	!	!	!
8G\L	.	8b\L	.	4.e/	.	4.e/	.	4r	.	4r	.	4r	4r	.
8E\	.	8g\	.	.	.	.	.	.	.	.	.	.	.	.
8A\	.	8e\	.	.	.	.	.	4a/	.	4ee\	.	4cc#\	4ee\	.
8AA/J	.	8a\J	.	(16a/LL	.	16a/LL	.	.	.	.	.	.	.	.
.	.	.	.	16c#/JJ)	.	16c#/JJ	.	.	.	.	.	.	.	.
!	!	!LO:LB:g=original	!	!LO:LB:g=original	!	!LO:LB:g=original	!	!	!	!	!	!	!	!
=5	=5	=5	=5	=5	=5	=5	=5	=5	=5	=5	=5	=5	=5	=5
*tremolo	*	*tremolo	*	*	*	*	*	*	*	*	*	*	*	*
*tremolo	*	*	*	*	*	*	*	*	*	*	*	*	*	*
*	*	*tremolo	*	*	*	*	*	*	*	*	*	*	*	*
8D\L	.	8f#\L	.	4d/	.	4d/	.	1dd	.	1ff#	.	1dd	1ff#	.
8D\	.	8f#\	.	.	.	.	.	.	.	.	.	.	.	.
8D\	.	8f#\	.	4f#/	.	4f#/	.	.	.	.	.	.	.	.
8D\J	.	8f#\J	.	.	.	.	.	.	.	.	.	.	.	.
8D\L	.	8f#\L	.	4.a/	.	4.a/	.	.	.	.	.	.	.	.
8D\	.	8f#\	.	.	.	.	.	.	.	.	.	.	.	.
8D\	.	8f#\	.	.	.	.	.	.	.	.	.	.	.	.
8D\J	.	8f#\J	.	(16g/LL	.	(16g/LL	.	.	.	.	.	.	.	.
.	.	.	.	16f#/JJ)	.	16f#/JJ)	.	.	.	.	.	.	.	.
!	!	!	!	!	!	!	!	!LO:LB:g=original	!	!LO:LB:g=original	!	!LO:LB:g=original	!	!
=6	=6	=6	=6	=6	=6	=6	=6	=6	=6	=6	=6	=6	=6	=6
8D\L	.	8g\L	.	4e/	.	4e/	.	1dd	.	1gg	.	1dd	1gg	.
8D\	.	8g\	.	.	.	.	.	.	.	.	.	.	.	.
8D\	.	8g\	.	4g/	.	4g/	.	.	.	.	.	.	.	.
8D\J	.	8g\J	.	.	.	.	.	.	.	.	.	.	.	.
8D\L	.	8g\L	.	4.b/	.	4.b/	.	.	.	.	.	.	.	.
8D\	.	8g\	.	.	.	.	.	.	.	.	.	.	.	.
8D\	.	8g\	.	.	.	.	.	.	.	.	.	.	.	.
8D\J	.	8g\J	.	(16a/LL	.	(16a/LL	.	.	.	.	.	.	.	.
.	.	.	.	16g/JJ)	.	16g/JJ)	.	.	.	.	.	.	.	.
!	!	!	!	!	!	!	!	!	!	!	!	!	!LO:LB:g=original	!
*Xtremolo	*	*Xtremolo	*	*	*	*	*	*	*	*	*	*	*	*
=7	=7	=7	=7	=7	=7	=7	=7	=7	=7	=7	=7	=7	=7	=7
8D\L	.	8f#\L	.	8f#/L	.	8f#/L	.	4dd\	.	4ff#\	.	4dd\	4ff#\	.
8A\	.	8a\	.	8a/	.	8a/	.	.	.	.	.	.	.	.
8B\	.	8b\	.	8b/	.	8b/	.	4r	.	4r	.	4r	4r	.
8c#\J	.	8cc#\J	.	8cc#/J	.	8cc#/J	.	.	.	.	.	.	.	.
8d\L	.	8dd\L	.	8dd/L	.	8dd/L	.	8r	.	8r	.	8r	8r	.
8A\	.	8a\	.	8a/	.	8a/	.	8a/L	.	8aa\L	.	8aa\L	8aa\L	.
8F#\	.	8f#\	.	8f#/	.	8f#/	.	8f#/	.	8ff#\	.	8gg\	8ff#\	.
8D\J	.	8d\J	.	8d/J	.	8d/J	.	8d/J	.	8dd\J	.	8ff#\J	8dd\J	.
=8	=8	=8	=8	=8	=8	=8	=8	=8	=8	=8	=8	=8	=8	=8
8A\L	.	8a\L	.	4a/	.	16a\LL	.	2A/	.	2a/	.	2a/	2a/	.
.	.	.	.	.	.	16aa\	.	.	.	.	.	.	.	.
8A\	.	8a\	.	.	.	16aa\	.	.	.	.	.	.	.	.
.	.	.	.	.	.	16aa\JJ	.	.	.	.	.	.	.	.
8G\	.	8g\	.	4r	.	16aa\LL	.	.	.	.	.	.	.	.
.	.	.	.	.	.	16aa\	.	.	.	.	.	.	.	.
8G\J	.	8g\J	.	.	.	16aa\	.	.	.	.	.	.	.	.
.	.	.	.	.	.	16aa\JJ	.	.	.	.	.	.	.	.
*	*	*	*	*	*	*tremolo	*	*	*	*	*	*	*	*
*	*	*	*	*	*	*tremolo	*	*	*	*	*	*	*	*
!	!	!	!	!	!	!LO:TX:a:t=P:global:problem=16\ chorągiewki w lewo	!	!	!	!	!	!	!	!
8F#\L	.	8f#\L	.	16a/LL	.	16aa\LL	.	2r	.	2r	.	2r	2r	.
.	.	.	.	16a/	.	16aa\	.	.	.	.	.	.	.	.
8F#\	.	8f#\	.	16a/	.	16aa\	.	.	.	.	.	.	.	.
.	.	.	.	16a/JJ	.	16aa\JJ	.	.	.	.	.	.	.	.
*	*	*	*	*tremolo	*	*	*	*	*	*	*	*	*	*
*	*	*	*	*tremolo	*	*	*	*	*	*	*	*	*	*
8E\	.	8e\	.	16g/LL	.	16aa\LL	.	.	.	.	.	.	.	.
.	.	.	.	16g/	.	16aa\	.	.	.	.	.	.	.	.
8E\J	.	8e\J	.	16g/	.	16aa\	.	.	.	.	.	.	.	.
.	.	.	.	16g/JJ	.	16aa\JJ	.	.	.	.	.	.	.	.
*	*	*	*	*	*	*Xtremolo	*	*	*	*	*	*	*	*
=9	=9	=9	=9	=9	=9	=9	=9	=9	=9	=9	=9	=9	=9	=9
*tremolo	*	*tremolo	*	*	*	*	*	*	*	*	*	*	*	*
!	!	!	!	!	!	!	!	!LO:TX:a:t=2	!	!LO:TX:a:t=2	!	!	!	!
8D#X\L	.	8d#X\L	.	16B/ 16f#LL	.	16aa\LL	.	0r	.	0r	.	1ff#	1aa	.
.	.	.	.	16B/ 16f#	.	16gg#X\	.	.	.	.	.	.	.	.
8D#X\	.	8d#X\	.	16B/ 16f#	.	16aa\	.	.	.	.	.	.	.	.
.	.	.	.	16B/ 16f#	.	16bb\JJ	.	.	.	.	.	.	.	.
!	!	!	!	!	!	!LO:TX:a:t=P:global:problem=8\ chorągiewki w lewo	!	!	!	!	!	!	!	!
8D#X\	.	8d#X\	.	16B/ 16f#	.	8cccn\	.	.	.	.	.	.	.	.
.	.	.	.	16B/ 16f#	.	.	.	.	.	.	.	.	.	.
8D#X\J	.	8d#X\J	.	16B/ 16f#	.	8r	.	.	.	.	.	.	.	.
.	.	.	.	16B/ 16f#JJ	.	.	.	.	.	.	.	.	.	.
8BB/L	.	8B\L	.	16B/ 16f#LL	.	16dd#X\LL	.	.	.	.	.	.	.	.
.	.	.	.	16B/ 16f#	.	(16cc#X\	.	.	.	.	.	.	.	.
8BB/	.	8B\	.	16B/ 16f#	.	16dd#\	.	.	.	.	.	.	.	.
.	.	.	.	16B/ 16f#	.	16ee\JJ)	.	.	.	.	.	.	.	.
8BB/	.	8B\	.	16B/ 16f#	.	8ff#\	.	.	.	.	.	.	.	.
.	.	.	.	16B/ 16f#	.	.	.	.	.	.	.	.	.	.
8BB/J	.	8B\J	.	16B/ 16f#	.	8r	.	.	.	.	.	.	.	.
.	.	.	.	16B/ 16f#JJ	.	.	.	.	.	.	.	.	.	.
!	!	!	!	!	!	!LO:LB:g=original	!	!	!	!	!	!	!	!
*Xtremolo	*	*Xtremolo	*	*Xtremolo	*	*	*	*	*	*	*	*	*	*
=10	=10	=10	=10	=10	=10	=10	=10	=10	=10	=10	=10	=10	=10	=10
!	!	!	!	!	!	!LO:TX:a:t=P:problem=mixed beam	!	!	!	!	!	!	!	!
8E\L	.	8e\L	.	4B/ 4g	.	16e/LL	.	.	.	.	.	2ee\	2gg\	.
.	.	.	.	.	.	16gg\	.	.	.	.	.	.	.	.
8E\	.	8e\	.	.	.	16gg\	.	.	.	.	.	.	.	.
.	.	.	.	.	.	16gg\JJ	.	.	.	.	.	.	.	.
8G\	.	8g\	.	4r	.	16gg\LL	.	.	.	.	.	.	.	.
.	.	.	.	.	.	16gg\	.	.	.	.	.	.	.	.
8G\J	.	8g\J	.	.	.	16gg\	.	.	.	.	.	.	.	.
.	.	.	.	.	.	16gg\JJ	.	.	.	.	.	.	.	.
*	*	*	*	*tremolo	*	*tremolo	*	*	*	*	*	*	*	*
8E\L	.	8e\L	.	16g/LL	.	16gg\LL	.	.	.	.	.	2r	2r	.
.	.	.	.	16g/	.	16gg\	.	.	.	.	.	.	.	.
8E\	.	8e\	.	16g/	.	16gg\	.	.	.	.	.	.	.	.
.	.	.	.	16g/JJ	.	16gg\	.	.	.	.	.	.	.	.
8Dn\	.	8dn\	.	16f#/LL	.	16gg\	.	.	.	.	.	.	.	.
.	.	.	.	16f#/	.	16gg\	.	.	.	.	.	.	.	.
8D\J	.	8d\J	.	16f#/	.	16gg\	.	.	.	.	.	.	.	.
.	.	.	.	16f#/JJ	.	16gg\JJ	.	.	.	.	.	.	.	.
*	*	*	*	*	*	*Xtremolo	*	*	*	*	*	*	*	*
!LO:LB:g=original	!	!LO:LB:g=original	!	!LO:LB:g=original	!	!	!	!	!	!	!	!	!	!
=11	=11	=11	=11	=11	=11	=11	=11	=11	=11	=11	=11	=11	=11	=11
*tremolo	*	*tremolo	*	*	*	*	*	*	*	*	*	*	*	*
8C#/L	.	8c#\L	.	16A/ 16eLL	.	16gg\LL	.	2r	.	2r	.	1ee	1gg	.
.	.	.	.	16A/ 16e	.	16ff#\	.	.	.	.	.	.	.	.
8C#/	.	8c#\	.	16A/ 16e	.	16gg\	.	.	.	.	.	.	.	.
.	.	.	.	16A/ 16e	.	16aa\JJ	.	.	.	.	.	.	.	.
8C#/	.	8c#\	.	16A/ 16e	.	8bb\	.	.	.	.	.	.	.	.
.	.	.	.	16A/ 16e	.	.	.	.	.	.	.	.	.	.
8C#/J	.	8c#\J	.	16A/ 16e	.	8r	.	.	.	.	.	.	.	.
.	.	.	.	16A/ 16eJJ	.	.	.	.	.	.	.	.	.	.
8AA/L	.	8A/L	.	16A/ 16eLL	.	16cc#\LL	.	2A/	.	2a/	.	.	.	.
.	.	.	.	16A/ 16e	.	16b\	.	.	.	.	.	.	.	.
8AA/	.	8A/	.	16A/ 16e	.	16cc#\	.	.	.	.	.	.	.	.
.	.	.	.	16A/ 16e	.	16dd\JJ	.	.	.	.	.	.	.	.
8AA/	.	8A/	.	16A/ 16e	.	8ee\	.	.	.	.	.	.	.	.
.	.	.	.	16A/ 16e	.	.	.	.	.	.	.	.	.	.
8AA/J	.	8A/J	.	16A/ 16e	.	8r	.	.	.	.	.	.	.	.
.	.	.	.	16A/ 16eJJ	.	.	.	.	.	.	.	.	.	.
*Xtremolo	*	*	*	*	*	*	*	*	*	*	*	*	*	*
=12	=12	=12	=12	=12	=12	=12	=12	=12	=12	=12	=12	=12	=12	=12
!	!	!	!LO:DY:b:t=f.	!	!	!	!	!	!	!	!	!	!	!
4D\	.	8d\L	f	16A/ 16f#LL	.	4d/	.	4d/	.	4dd\	.	4dd\	4ff#\	.
.	.	.	.	16A/ 16f#	.	.	.	.	.	.	.	.	.	.
.	.	8d\	.	16A/ 16f#	.	.	.	.	.	.	.	.	.	.
.	.	.	.	16A/ 16f#	.	.	.	.	.	.	.	.	.	.
4r	.	8d\	.	16A/ 16f#	.	4ff#\	.	4r	.	4r	.	4r	4r	.
.	.	.	.	16A/ 16f#	.	.	.	.	.	.	.	.	.	.
.	.	8d\J	.	16A/ 16f#	.	.	.	.	.	.	.	.	.	.
.	.	.	.	16A/ 16f#JJ	.	.	.	.	.	.	.	.	.	.
!	!	!	!LO:DY:b:t=p.	!	!	!	!	!	!	!	!	!	!	!
2r	.	8d\L	p	16A/ 16f#LL	.	8r	.	2r	.	2r	.	2r	4r	.
.	.	.	.	16A/ 16f#	.	.	.	.	.	.	.	.	.	.
!	!	!	!	!	!	!	!LO:DY:b:t=p.	!	!	!	!	!	!	!
.	.	8d\	.	16A/ 16f#	.	8aa#X\L	p	.	.	.	.	.	.	.
.	.	.	.	16A/ 16f#	.	.	.	.	.	.	.	.	.	.
.	.	8d\	.	16A/ 16f#	.	8bb\	.	.	.	.	.	.	4r	.
.	.	.	.	16A/ 16f#	.	.	.	.	.	.	.	.	.	.
.	.	8d\J	.	16A/ 16f#	.	8ccc#\J	.	.	.	.	.	.	.	.
.	.	.	.	16A/ 16f#JJ	.	.	.	.	.	.	.	.	.	.
*	*	*	*	*Xtremolo	*	*	*	*	*	*	*	*	*	*
=13	=13	=13	=13	=13	=13	=13	=13	=13	=13	=13	=13	=13	=13	=13
*	*	*	*	*^	*	*	*	*	*	*	*	*	*	*
*	*	*	*	*	*2\right	*	*	*	*	*	*	*	*	*	*
*	*	*	*	*tremolo	*tremolo	*	*	*	*	*	*	*	*	*	*
!	!	!	!	!LO:TX:b:i:t=problem: cauda półnuty po prawej:global	!	!	!	!	!	!	!	!	!	!	!
!	!	!	!	!	!	!LO:DY:b:t=f.	!	!	!	!	!	!	!	!	!
1r	.	8d\L	.	16b/LL	16f#\LL	f	8ddd\	.	1r	.	1r	.	2dd\	2ff#\	.
.	.	.	.	16b/	16f#\	.	.	.	.	.	.	.	.	.	.
.	.	8d\	.	16b/	16f#\	.	8r	.	.	.	.	.	.	.	.
.	.	.	.	16b/	16f#\	.	.	.	.	.	.	.	.	.	.
.	.	8d\	.	16b/	16f#\	.	8bb\	.	.	.	.	.	.	.	.
.	.	.	.	16b/	16f#\	.	.	.	.	.	.	.	.	.	.
.	.	8d\J	.	16b/	16f#\	.	8r	.	.	.	.	.	.	.	.
.	.	.	.	16b/JJ	16f#\JJ	.	.	.	.	.	.	.	.	.	.
.	.	8d\L	.	16b/LL	16g\LL	.	8ff#\	.	.	.	.	.	(8ff#\L	8bb\L	.
.	.	.	.	16b/	16g\	.	.	.	.	.	.	.	.	.	.
.	.	8d\	.	16b/	16g\	.	8r	.	.	.	.	.	8dd\)	8ff#\	.
.	.	.	.	16b/	16g\	.	.	.	.	.	.	.	.	.	.
.	.	8d\	.	16b/	16g\	.	8dd\	.	.	.	.	.	(8ff#\	8bb\	.
.	.	.	.	16b/	16g\	.	.	.	.	.	.	.	.	.	.
.	.	8d\J	.	16b/	16g\	.	8r	.	.	.	.	.	8dd\J)	8ff#\J	.
.	.	.	.	16b/JJ	16g\JJ	.	.	.	.	.	.	.	.	.	.
!	!	!	!	!	!	!	!LO:LB:g=original	!	!	!	!	!	!	!LO:LB:g=original	!
=14	=14	=14	=14	=14	=14	=14	=14	=14	=14	=14	=14	=14	=14	=14	=14
!	!	!	!LO:DY:b:t=f.	!	!	!	!	!LO:DY:b:t=f.	!	!	!	!	!	!	!
4C#/	.	8c#\L	f	16a/LL	16e\LL	.	4c#/	f	4A/	.	4a/	.	4cc#\	4ee\	.
.	.	.	.	16a/	16e\	.	.	.	.	.	.	.	.	.	.
.	.	8c#\	.	16a/	16e\	.	.	.	.	.	.	.	.	.	.
.	.	.	.	16a/	16e\	.	.	.	.	.	.	.	.	.	.
4r	.	8c#\	.	16a/	16e\	.	4ee\	.	4r	.	4r	.	4r	4r	.
.	.	.	.	16a/	16e\	.	.	.	.	.	.	.	.	.	.
.	.	8c#\J	.	16a/	16e\	.	.	.	.	.	.	.	.	.	.
.	.	.	.	16a/JJ	16e\JJ	.	.	.	.	.	.	.	.	.	.
!	!	!	!LO:DY:b:t=p.	!	!	!	!	!	!	!	!	!	!	!	!
2r	.	8B\L	p	16a/LL	16e\LL	.	8r	.	2r	.	2r	.	2r	2r	.
.	.	.	.	16a/	16e\	.	.	.	.	.	.	.	.	.	.
!	!	!	!	!	!	!	!	!LO:DY:b:t=p.	!	!	!	!	!	!	!
.	.	8B\	.	16a/	16e\	.	8gg#X\L	p	.	.	.	.	.	.	.
.	.	.	.	16a/	16e\	.	.	.	.	.	.	.	.	.	.
.	.	8B\	.	16a/	16e\	.	8aa\	.	.	.	.	.	.	.	.
.	.	.	.	16a/	16e\	.	.	.	.	.	.	.	.	.	.
.	.	8B\J	.	16a/	16e\	.	8bb\J	.	.	.	.	.	.	.	.
.	.	.	.	16a/JJ	16e\JJ	.	.	.	.	.	.	.	.	.	.
!	!	!	!	!	!	!	!	!	!	!	!	!	!LO:LB:g=original	!	!
=15	=15	=15	=15	=15	=15	=15	=15	=15	=15	=15	=15	=15	=15	=15	=15
1r	.	8c#\L	.	16a/LL	16f#\LL	.	8ccc#\	.	1r	.	1r	.	2cc#\	2ee\	.
.	.	.	.	16a/	16f#\	.	.	.	.	.	.	.	.	.	.
.	.	8c#\	.	16a/	16f#\	.	8r	.	.	.	.	.	.	.	.
.	.	.	.	16a/	16f#\	.	.	.	.	.	.	.	.	.	.
.	.	8c#\	.	16a/	16f#\	.	8aa\	.	.	.	.	.	.	.	.
.	.	.	.	16a/	16f#\	.	.	.	.	.	.	.	.	.	.
.	.	8c#\J	.	16a/	16f#\	.	8r	.	.	.	.	.	.	.	.
.	.	.	.	16a/JJ	16f#\JJ	.	.	.	.	.	.	.	.	.	.
.	.	8c#\L	.	16a/LL	16f#\LL	.	8ee\	.	.	.	.	.	8ee\L	(8aa\L	.
.	.	.	.	16a/	16f#\	.	.	.	.	.	.	.	.	.	.
.	.	8c#\	.	16a/	16f#\	.	8r	.	.	.	.	.	8cc#\	8ee\)	.
.	.	.	.	16a/	16f#\	.	.	.	.	.	.	.	.	.	.
.	.	8c#\	.	16a/	16f#\	.	8cc#\	.	.	.	.	.	(8ee\	(8aa\	.
.	.	.	.	16a/	16f#\	.	.	.	.	.	.	.	.	.	.
.	.	8c#\J	.	16a/	16f#\	.	8r	.	.	.	.	.	8cc#\J)	8ee\J)	.
.	.	.	.	16a/JJ	16f#\JJ	.	.	.	.	.	.	.	.	.	.
*	*	*	*	*Xtremolo	*Xtremolo	*	*	*	*	*	*	*	*	*	*
*	*	*	*	*v	*v	*	*	*	*	*	*	*	*	*	*
!	!	!	!	!	!	!	!	!LO:LB:g=original	!	!LO:LB:g=original	!	!	!	!
=16	=16	=16	=16	=16	=16	=16	=16	=16	=16	=16	=16	=16	=16	=16
*	*	*	*	*tremolo	*	*	*	*	*	*	*	*	*	*
!	!	!	!LO:DY:b:t=f.	!	!LO:DY:b:t=p.	!	!LO:DY:a:t=f.	!	!	!	!	!	!	!
4BB/	.	8B/L	f	16d/ 16g#XLL	p	4B/	f	4ee\	.	4ee\	.	4b\	4dd\	.
.	.	.	.	16d/ 16g#X	.	.	.	.	.	.	.	.	.	.
.	.	8B/	.	16d/ 16g#X	.	.	.	.	.	.	.	.	.	.
.	.	.	.	16d/ 16g#X	.	.	.	.	.	.	.	.	.	.
4r	.	8B/	.	16d/ 16g#X	.	4dd\	.	4r	.	4r	.	4r	4r	.
.	.	.	.	16d/ 16g#X	.	.	.	.	.	.	.	.	.	.
.	.	8B/J	.	16d/ 16g#X	.	.	.	.	.	.	.	.	.	.
.	.	.	.	16d/ 16g#XJJ	.	.	.	.	.	.	.	.	.	.
!	!	!	!LO:DY:b:t=p.	!	!	!	!	!	!	!	!	!	!	!
2r	.	8B/L	p	16d/ 16g#LL	.	8r	.	2r	.	2r	.	2r	2r	.
.	.	.	.	16d/ 16g#	.	.	.	.	.	.	.	.	.	.
!	!	!	!	!	!	!	!LO:DY:b:t=p.	!	!	!	!	!	!	!
.	.	8B/	.	16d/ 16g#	.	8ff#\L	p	.	.	.	.	.	.	.
.	.	.	.	16d/ 16g#	.	.	.	.	.	.	.	.	.	.
.	.	8B/	.	16d/ 16g#	.	8gg#X\	.	.	.	.	.	.	.	.
.	.	.	.	16d/ 16g#	.	.	.	.	.	.	.	.	.	.
.	.	8B/J	.	16d/ 16g#	.	8aa\J	.	.	.	.	.	.	.	.
.	.	.	.	16d/ 16g#JJ	.	.	.	.	.	.	.	.	.	.
=17	=17	=17	=17	=17	=17	=17	=17	=17	=17	=17	=17	=17	=17	=17
1r	.	8B/L	.	16d/ 16g#yLL	.	8bb\	.	1r	.	1r	.	2b\	2dd\	.
.	.	.	.	16d/ 16g#y	.	.	.	.	.	.	.	.	.	.
.	.	8B/	.	16d/ 16g#y	.	8r	.	.	.	.	.	.	.	.
.	.	.	.	16d/ 16g#y	.	.	.	.	.	.	.	.	.	.
.	.	8B/	.	16d/ 16g#y	.	8gg#X\	.	.	.	.	.	.	.	.
.	.	.	.	16d/ 16g#y	.	.	.	.	.	.	.	.	.	.
.	.	8B/J	.	16d/ 16g#y	.	8r	.	.	.	.	.	.	.	.
.	.	.	.	16d/ 16g#yJJ	.	.	.	.	.	.	.	.	.	.
.	.	8B/L	.	16d/ 16g#LL	.	8dd\	.	.	.	.	.	(8dd\L	(8gg#X\L	.
.	.	.	.	16d/ 16g#	.	.	.	.	.	.	.	.	.	.
.	.	8B/	.	16d/ 16g#	.	8r	.	.	.	.	.	8b\)	8dd\)	.
.	.	.	.	16d/ 16g#	.	.	.	.	.	.	.	.	.	.
.	.	8B/	.	16d/ 16g#	.	8b\	.	.	.	.	.	(8dd\	(8gg#\	.
.	.	.	.	16d/ 16g#	.	.	.	.	.	.	.	.	.	.
.	.	8B/J	.	16d/ 16g#	.	8r	.	.	.	.	.	8b\J)	8dd\J)	.
.	.	.	.	16d/ 16g#JJ	.	.	.	.	.	.	.	.	.	.
*	*	*	*	*Xtremolo	*	*	*	*	*	*	*	*	*	*
!	!	!	!	!LO:LB:g=original	!	!	!	!	!	!	!	!	!	!
=18	=18	=18	=18	=18	=18	=18	=18	=18	=18	=18	=18	=18	=18	=18
*tremolo	*	*	*	*	*	*	*	*	*	*	*	*	*	*
8AA/L	.	8c#\L	.	4c#/	.	4cc#\	.	2A/	.	2a/	.	2a/	2cc#\	.
8AA/	.	8c#\	.	.	.	.	.	.	.	.	.	.	.	.
8AA/	.	8c#\	.	4aa\	.	4aa\	.	.	.	.	.	.	.	.
8AA/J	.	8c#\J	.	.	.	.	.	.	.	.	.	.	.	.
8C#/L	.	8e\L	.	8r	.	8r	.	2r	.	2r	.	2r	2r	.
8C#/	.	8e\	.	16ee\LL	.	16ee\LL	.	.	.	.	.	.	.	.
.	.	.	.	16dd\JJ	.	16dd\JJ	.	.	.	.	.	.	.	.
8C#/	.	8e\	.	8cc#\L	.	8cc#\L	.	.	.	.	.	.	.	.
8C#/J	.	8e\J	.	16b\L	.	16b\L	.	.	.	.	.	.	.	.
.	.	.	.	16a\JJ	.	16a\JJ	.	.	.	.	.	.	.	.
*Xtremolo	*	*Xtremolo	*	*	*	*	*	*	*	*	*	*	*	*
!	!	!	!	!	!	!LO:LB:g=original	!	!	!	!	!	!	!	!
=19	=19	=19	=19	=19	=19	=19	=19	=19	=19	=19	=19	=19	=19	=19
.	.	.	.	8qqcc#/	.	8qqcc#/	.	.	.	.	.	.	.	.
8D\L	.	8f#\L	.	8b\L	.	8b/L	.	1r	.	1r	.	4f#/	4b\	.
8D\	.	8f#\	.	16a\L	.	16a/L	.	.	.	.	.	.	.	.
.	.	.	.	16b\JJ	.	16b/JJ	.	.	.	.	.	.	.	.
!	!	!	!	!	!	!LO:TX:b:i:t=problem: nad tą i następną nutą litery c i b	!	!	!	!	!	!	!	!
.	.	.	.	8qqdd/	.	8qqdd/	.	.	.	.	.	.	.	.
8E\	.	8g#X\	.	8cc#\L	.	8cc#\L	.	.	.	.	.	4g#X/	4cc#\	.
8E\J	.	8g#\J	.	16b\L	.	16b\L	.	.	.	.	.	.	.	.
.	.	.	.	16cc#\JJ	.	16cc#\JJ	.	.	.	.	.	.	.	.
!	!	!	!	!	!	!	!	!	!	!	!	!	!	!LO:DY:b:t=f.
.	.	.	.	8qqee/	.	8qqee/	.	.	.	.	.	.	8qqee/	f
!	!	!LO:LB:g=original	!	!	!	!	!	!	!	!	!	!	!	!
8F#\L	.	8a\L	.	8dd\L	.	8dd\L	.	.	.	.	.	4a/	2dd\	.
8F#\	.	8a\	.	16cc#\L	.	16cc#\L	.	.	.	.	.	.	.	.
.	.	.	.	16dd\JJ	.	16dd\JJ	.	.	.	.	.	.	.	.
8F#X\	.	8b\	.	8.ee\L	.	8.ee\L	.	.	.	.	.	4b/	.	.
8F#\J	.	8b\J	.	.	.	.	.	.	.	.	.	.	.	.
.	.	.	.	16dd\Jk	.	16dd\Jk	.	.	.	.	.	.	.	.
!LO:LB:g=original	!	!	!	!	!	!	!	!	!	!	!	!	!	!
=20	=20	=20	=20	=20	=20	=20	=20	=20	=20	=20	=20	=20	=20	=20
*tremolo	*	*tremolo	*	*	*	*	*	*	*	*	*	*	*	*
8A\L	.	8c#\L	.	4cc#\	.	4cc#\	.	2A/	.	2a/	.	2f#/	2cc#\	.
8A\	.	8c#\	.	.	.	.	.	.	.	.	.	.	.	.
8A\	.	8c#\	.	4aa\	.	4aa\	.	.	.	.	.	.	.	.
8A\J	.	8c#\J	.	.	.	.	.	.	.	.	.	.	.	.
8C#/L	.	8e\L	.	8r	.	8r	.	2r	.	2r	.	2r	2r	.
8C#/	.	8e\	.	(16ee\LL	.	16ee\LL	.	.	.	.	.	.	.	.
.	.	.	.	16dd\JJ)	.	16dd\JJ	.	.	.	.	.	.	.	.
8C#/	.	8e\	.	8cc#\L	.	8cc#\L	.	.	.	.	.	.	.	.
8C#/J	.	8e\J	.	16b\L	.	16b\L	.	.	.	.	.	.	.	.
.	.	.	.	16a\JJ	.	16a\JJ	.	.	.	.	.	.	.	.
*Xtremolo	*	*Xtremolo	*	*	*	*	*	*	*	*	*	*	*	*
=21	=21	=21	=21	=21	=21	=21	=21	=21	=21	=21	=21	=21	=21	=21
.	.	.	.	8qqcc#/	.	8qqcc#/	.	.	.	.	.	.	.	.
8D\L	.	8f#\L	.	8b\L	.	8b/L	.	1r	.	1r	.	4f#/	4b\	.
8D\	.	8f#\	.	(16a\L	.	16a/L	.	.	.	.	.	.	.	.
.	.	.	.	16b\JJ)	.	16b/JJ	.	.	.	.	.	.	.	.
.	.	.	.	8qqdd/	.	8qqdd/	.	.	.	.	.	.	.	.
8E\	.	8g#X\	.	8cc#\L	.	8cc#\L	.	.	.	.	.	4g#X/	4cc#\	.
8E\J	.	8g#\J	.	(16b\L	.	16b\L	.	.	.	.	.	.	.	.
.	.	.	.	16cc#\JJ)	.	16cc#\JJ	.	.	.	.	.	.	.	.
.	.	.	.	8qqee/	.	8qqee/	.	.	.	.	.	.	8qqee/	.
8F#\L	.	8a\L	.	8dd\L	.	8dd\L	.	.	.	.	.	4a/	2dd\	.
8F#\	.	8a\	.	16cc#\L	.	16cc#\L	.	.	.	.	.	.	.	.
.	.	.	.	16dd\JJ	.	16dd\JJ	.	.	.	.	.	.	.	.
8G#X\	.	8b\	.	(8.ee\L	.	8.ee\L	.	.	.	.	.	4b/	.	.
8G#\J	.	8b\J	.	.	.	.	.	.	.	.	.	.	.	.
.	.	.	.	16dd\Jk)	.	16dd\Jk	.	.	.	.	.	.	.	.
!	!	!	!	!LO:LB:g=original	!	!	!	!	!	!	!	!	!LO:LB:g=original	!
=22	=22	=22	=22	=22	=22	=22	=22	=22	=22	=22	=22	=22	=22	=22
*	*	*	*	*^	*	*	*	*	*	*	*	*	*	*
*	*	*	*	*tremolo	*tremolo	*	*	*	*	*	*	*	*	*	*
!LO:TX:t=P:problem=mixed beam	!	!	!	!	!	!	!	!	!	!	!	!	!	!	!
8A\L	.	8a\L	.	16ee/LL	16b\LL	.	8cc#\	.	2A/	.	2a/	.	2a/	2ee\	.
.	.	.	.	16ee/	16b\	.	.	.	.	.	.	.	.	.	.
8A\	.	8a\	.	16ee/	16b\	.	8r	.	.	.	.	.	.	.	.
.	.	.	.	16ee/	16b\	.	.	.	.	.	.	.	.	.	.
8C#/	.	8e\	.	16ee/	16b\	.	8aa\	.	.	.	.	.	.	.	.
.	.	.	.	16ee/	16b\	.	.	.	.	.	.	.	.	.	.
8C#/J	.	8e\J	.	16ee/	16b\	.	8r	.	.	.	.	.	.	.	.
.	.	.	.	16ee/JJ	16b\JJ	.	.	.	.	.	.	.	.	.	.
!	!	!LO:TX:t=P:problem=mixed beam	!	!	!	!	!	!	!	!	!	!	!	!	!
8D/L	.	8A/L	.	16ff#/LL	16b\LL	.	8ff#\	.	2r	.	2r	.	2b/	2ff#\	.
.	.	.	.	16ff#/	16b\	.	.	.	.	.	.	.	.	.	.
8D/	.	8A/	.	16ff#/	16b\	.	8r	.	.	.	.	.	.	.	.
.	.	.	.	16ff#/	16b\	.	.	.	.	.	.	.	.	.	.
8BB/	.	8f#\	.	16ff#/	16b\	.	8ddd\	.	.	.	.	.	.	.	.
.	.	.	.	16ff#/	16b\	.	.	.	.	.	.	.	.	.	.
8BB/J	.	8f#\J	.	16ff#/	16b\	.	8r	.	.	.	.	.	.	.	.
.	.	.	.	16ff#/JJ	16b\JJ	.	.	.	.	.	.	.	.	.	.
!	!	!	!	!	!	!	!LO:LB:g=original	!	!	!	!	!	!LO:LB:g=original	!	!
=23	=23	=23	=23	=23	=23	=23	=23	=23	=23	=23	=23	=23	=23	=23	=23
*tremolo	*	*tremolo	*	*tremolo	*tremolo	*	*	*	*	*	*	*	*	*	*
8E\L	.	8e\L	.	16cc#/LL	16a\LL	.	2ee\	.	1ee	.	1ee	.	2a/	2cc#\	.
.	.	.	.	16cc#/	16a\	.	.	.	.	.	.	.	.	.	.
8E\	.	8e\	.	16cc#/	16a\	.	.	.	.	.	.	.	.	.	.
.	.	.	.	16cc#/	16a\	.	.	.	.	.	.	.	.	.	.
8E\	.	8e\	.	16cc#/	16a\	.	.	.	.	.	.	.	.	.	.
.	.	.	.	16cc#/	16a\	.	.	.	.	.	.	.	.	.	.
8E\J	.	8e\J	.	16cc#/	16a\	.	.	.	.	.	.	.	.	.	.
.	.	.	.	16cc#/JJ	16a\JJ	.	.	.	.	.	.	.	.	.	.
!	!	!	!	!	!	!	!	!	!	!	!	!	!	!LO:TX:a:t=t	!
8EE/L	.	8e\L	.	16b/LL	16g#X\LL	.	2bb\	.	.	.	.	.	2g#X/	2b\	.
.	.	.	.	16b/	16g#X\	.	.	.	.	.	.	.	.	.	.
8EE/	.	8e\	.	16b/	16g#X\	.	.	.	.	.	.	.	.	.	.
.	.	.	.	16b/	16g#X\	.	.	.	.	.	.	.	.	.	.
8EE/	.	8e\	.	16b/	16g#X\	.	.	.	.	.	.	.	.	.	.
.	.	.	.	16b/	16g#X\	.	.	.	.	.	.	.	.	.	.
8EE/J	.	8e\J	.	16b/	16g#X\	.	.	.	.	.	.	.	.	.	.
.	.	.	.	16b/JJ	16g#X\JJ	.	.	.	.	.	.	.	.	.	.
*Xtremolo	*	*	*	*Xtremolo	*Xtremolo	*	*	*	*	*	*	*	*	*	*
*	*	*	*	*v	*v	*	*	*	*	*	*	*	*	*	*
=24	=24	=24	=24	=24	=24	=24	=24	=24	=24	=24	=24	=24	=24	=24
2AA/	.	8A/L	.	16A/LL	.	2aa\	.	2A/	.	2a/	.	2a/	2a/	.
.	.	.	.	16A/	.	.	.	.	.	.	.	.	.	.
.	.	8A/	.	16c#/	.	.	.	.	.	.	.	.	.	.
.	.	.	.	16c#/JJ	.	.	.	.	.	.	.	.	.	.
.	.	8A/	.	16e/LL	.	.	.	.	.	.	.	.	.	.
.	.	.	.	16e/	.	.	.	.	.	.	.	.	.	.
.	.	8A/J	.	16a/	.	.	.	.	.	.	.	.	.	.
.	.	.	.	16a/JJ	.	.	.	.	.	.	.	.	.	.
2r	.	8A/L	.	16cc#/LL	.	2r	.	2r	.	2r	.	2r	2r	.
.	.	.	.	16cc#/	.	.	.	.	.	.	.	.	.	.
.	.	8A/	.	16a/	.	.	.	.	.	.	.	.	.	.
.	.	.	.	16a/JJ	.	.	.	.	.	.	.	.	.	.
.	.	8A/	.	16e/LL	.	.	.	.	.	.	.	.	.	.
.	.	.	.	16e/	.	.	.	.	.	.	.	.	.	.
.	.	8A/J	.	16c#/	.	.	.	.	.	.	.	.	.	.
.	.	.	.	16c#/JJ	.	.	.	.	.	.	.	.	.	.
!	!	!	!	!	!	!	!	!LO:LB:g=original	!	!	!	!	!	!
=25	=25	=25	=25	=25	=25	=25	=25	=25	=25	=25	=25	=25	=25	=25
!LO:TX:a:t=3	!	!	!LO:DY:b:t=p.	!	!LO:DY:a	!	!LO:DY:b:t=p.	!LO:TX:a:t=3	!	!LO:TX:a:t=3	!	!LO:TX:a:t=3	!LO:TX:a:t=3	!
0r	.	8A/L	p	16A/LL	p	2ggn\	p	0r	.	0r	.	0r	0r	.
.	.	.	.	16A/	.	.	.	.	.	.	.	.	.	.
.	.	8A/	.	16c#/	.	.	.	.	.	.	.	.	.	.
.	.	.	.	16c#/JJ	.	.	.	.	.	.	.	.	.	.
.	.	8A/	.	16e/LL	.	.	.	.	.	.	.	.	.	.
.	.	.	.	16e/	.	.	.	.	.	.	.	.	.	.
.	.	8A/J	.	16c#/	.	.	.	.	.	.	.	.	.	.
.	.	.	.	16c#/JJ	.	.	.	.	.	.	.	.	.	.
.	.	8A/L	.	16A/LL	.	4ee\	.	.	.	.	.	.	.	.
.	.	.	.	16A/	.	.	.	.	.	.	.	.	.	.
.	.	8A/	.	16c#/	.	.	.	.	.	.	.	.	.	.
.	.	.	.	16c#/JJ	.	.	.	.	.	.	.	.	.	.
.	.	8A/	.	16e/LL	.	4r	.	.	.	.	.	.	.	.
.	.	.	.	16e/	.	.	.	.	.	.	.	.	.	.
.	.	8A/J	.	16c#/	.	.	.	.	.	.	.	.	.	.
.	.	.	.	16c#/JJ	.	.	.	.	.	.	.	.	.	.
!	!	!	!	!LO:LB:g=original	!	!	!	!	!	!	!	!	!	!
=26	=26	=26	=26	=26	=26	=26	=26	=26	=26	=26	=26	=26	=26	=26
.	.	8A/L	.	16A/LL	.	(2ff#\	.	.	.	.	.	.	.	.
.	.	.	.	16A/	.	.	.	.	.	.	.	.	.	.
.	.	8A/	.	16d/	.	.	.	.	.	.	.	.	.	.
.	.	.	.	16d/JJ	.	.	.	.	.	.	.	.	.	.
.	.	8A/	.	16f#/LL	.	.	.	.	.	.	.	.	.	.
.	.	.	.	16f#/	.	.	.	.	.	.	.	.	.	.
.	.	8A/J	.	16d/	.	.	.	.	.	.	.	.	.	.
.	.	.	.	16d/JJ	.	.	.	.	.	.	.	.	.	.
.	.	8A/L	.	16A/LL	.	4dd\)	.	.	.	.	.	.	.	.
.	.	.	.	16A/	.	.	.	.	.	.	.	.	.	.
.	.	8A/	.	16d/	.	.	.	.	.	.	.	.	.	.
.	.	.	.	16d/JJ	.	.	.	.	.	.	.	.	.	.
.	.	8A/	.	16f#/LL	.	4r	.	.	.	.	.	.	.	.
.	.	.	.	16f#/	.	.	.	.	.	.	.	.	.	.
.	.	8A/J	.	16d/	.	.	.	.	.	.	.	.	.	.
.	.	.	.	16d/JJ	.	.	.	.	.	.	.	.	.	.
!	!	!LO:LB:g=original	!	!	!	!	!	!	!	!	!	!	!	!
=27	=27	=27	=27	=27	=27	=27	=27	=27	=27	=27	=27	=27	=27	=27
!	!	!	!LO:DY:b:t=f.	!	!	!	!	!	!	!	!	!	!	!
1r	.	8A/L	f	16A/LL	.	8d/	.	1r	.	1r	.	1r	1r	.
.	.	.	.	16A/	.	.	.	.	.	.	.	.	.	.
.	.	8A/	.	16d/	.	8r	.	.	.	.	.	.	.	.
.	.	.	.	16d/JJ	.	.	.	.	.	.	.	.	.	.
.	.	8A/	.	16f#/LL	.	8e/	.	.	.	.	.	.	.	.
.	.	.	.	16f#/	.	.	.	.	.	.	.	.	.	.
.	.	8A/J	.	16d/	.	8r	.	.	.	.	.	.	.	.
.	.	.	.	16d/JJ	.	.	.	.	.	.	.	.	.	.
.	.	8A/L	.	16A/LL	.	8f#/	.	.	.	.	.	.	.	.
.	.	.	.	16A/	.	.	.	.	.	.	.	.	.	.
.	.	8A/	.	16d/	.	8r	.	.	.	.	.	.	.	.
.	.	.	.	16d/JJ	.	.	.	.	.	.	.	.	.	.
.	.	8A/	.	16f#/LL	.	8g#X/	.	.	.	.	.	.	.	.
.	.	.	.	16f#/	.	.	.	.	.	.	.	.	.	.
.	.	8A/J	.	16d/	.	8r	.	.	.	.	.	.	.	.
.	.	.	.	16d/JJ	.	.	.	.	.	.	.	.	.	.
!	!	!	!	!	!	!	!	!	!	!LO:LB:g=original	!	!	!	!
=28	=28	=28	=28	=28	=28	=28	=28	=28	=28	=28	=28	=28	=28	=28
!	!	!	!LO:DY:b:t=p.	!	!	!	!	!	!	!	!	!	!	!
2AA/	.	8A/L	p	16A/LL	.	8a/	.	2A/	.	2a/	.	2a/	2b/	.
.	.	.	.	16A/	.	.	.	.	.	.	.	.	.	.
.	.	8A/	.	16c#/	.	8r	.	.	.	.	.	.	.	.
.	.	.	.	16c#/JJ	.	.	.	.	.	.	.	.	.	.
.	.	8A/	.	16e/LL	.	4r	.	.	.	.	.	.	.	.
.	.	.	.	16e/	.	.	.	.	.	.	.	.	.	.
.	.	8A/J	.	16a/	.	.	.	.	.	.	.	.	.	.
.	.	.	.	16a/JJ	.	.	.	.	.	.	.	.	.	.
2r	.	8A/L	.	16cc#/LL	.	2r	.	2r	.	2r	.	2r	2r	.
.	.	.	.	16cc#/	.	.	.	.	.	.	.	.	.	.
.	.	8A/	.	16a/	.	.	.	.	.	.	.	.	.	.
.	.	.	.	16a/JJ	.	.	.	.	.	.	.	.	.	.
.	.	8A/	.	16e/LL	.	.	.	.	.	.	.	.	.	.
.	.	.	.	16e/	.	.	.	.	.	.	.	.	.	.
.	.	8A/J	.	16c#/	.	.	.	.	.	.	.	.	.	.
.	.	.	.	16c#/JJ	.	.	.	.	.	.	.	.	.	.
!	!	!	!	!LO:LB:g=original	!	!	!	!	!	!	!	!	!	!
=29	=29	=29	=29	=29	=29	=29	=29	=29	=29	=29	=29	=29	=29	=29
!LO:TX:a:t=3	!	!	!	!	!	!	!LO:DY:b:t=p.	!LO:TX:a:t=3	!	!LO:TX:a:t=3	!	!LO:TX:a:t=3	!LO:TX:a:t=3	!
0r	.	8A/L	.	16A/LL	.	(2ggn\	p	0r	.	0r	.	0r	0r	.
.	.	.	.	16A/	.	.	.	.	.	.	.	.	.	.
.	.	8A/	.	16c#/	.	.	.	.	.	.	.	.	.	.
.	.	.	.	16c#/JJ	.	.	.	.	.	.	.	.	.	.
.	.	8A/	.	16e/LL	.	.	.	.	.	.	.	.	.	.
.	.	.	.	16e/	.	.	.	.	.	.	.	.	.	.
.	.	8A/J	.	16c#/	.	.	.	.	.	.	.	.	.	.
.	.	.	.	16c#/JJ	.	.	.	.	.	.	.	.	.	.
.	.	8A/L	.	16A/LL	.	4ee\)	.	.	.	.	.	.	.	.
.	.	.	.	16A/	.	.	.	.	.	.	.	.	.	.
.	.	8A/	.	16c#/	.	.	.	.	.	.	.	.	.	.
.	.	.	.	16c#/JJ	.	.	.	.	.	.	.	.	.	.
.	.	8A/	.	16e/LL	.	4r	.	.	.	.	.	.	.	.
.	.	.	.	16e/	.	.	.	.	.	.	.	.	.	.
.	.	8A/J	.	16c#/	.	.	.	.	.	.	.	.	.	.
.	.	.	.	16c#/JJ	.	.	.	.	.	.	.	.	.	.
!	!	!	!	!	!	!LO:LB:g=original	!	!	!	!	!	!	!	!
=30	=30	=30	=30	=30	=30	=30	=30	=30	=30	=30	=30	=30	=30	=30
.	.	8A/L	.	16A/LL	.	(2ff#\	.	.	.	.	.	.	.	.
.	.	.	.	16A/	.	.	.	.	.	.	.	.	.	.
.	.	8A/	.	16d/	.	.	.	.	.	.	.	.	.	.
.	.	.	.	16d/JJ	.	.	.	.	.	.	.	.	.	.
.	.	8A/	.	16f#/LL	.	.	.	.	.	.	.	.	.	.
.	.	.	.	16f#/	.	.	.	.	.	.	.	.	.	.
.	.	8A/J	.	16d/	.	.	.	.	.	.	.	.	.	.
.	.	.	.	16d/JJ	.	.	.	.	.	.	.	.	.	.
.	.	8A/L	.	16A/LL	.	4dd\)	.	.	.	.	.	.	.	.
.	.	.	.	16A/	.	.	.	.	.	.	.	.	.	.
.	.	8A/	.	16d/	.	.	.	.	.	.	.	.	.	.
.	.	.	.	16d/JJ	.	.	.	.	.	.	.	.	.	.
.	.	8A/	.	16f#/LL	.	4r	.	.	.	.	.	.	.	.
.	.	.	.	16f#/	.	.	.	.	.	.	.	.	.	.
.	.	8A/J	.	16d/	.	.	.	.	.	.	.	.	.	.
.	.	.	.	16d/JJ	.	.	.	.	.	.	.	.	.	.
=31	=31	=31	=31	=31	=31	=31	=31	=31	=31	=31	=31	=31	=31	=31
1r	.	8A/L	.	16A/LL	.	8d/	.	1r	.	1r	.	1r	1r	.
.	.	.	.	16A/	.	.	.	.	.	.	.	.	.	.
.	.	8A/	.	16d/	.	8r	.	.	.	.	.	.	.	.
.	.	.	.	16d/JJ	.	.	.	.	.	.	.	.	.	.
.	.	8A/	.	16f#/LL	.	8e/	.	.	.	.	.	.	.	.
.	.	.	.	16f#/	.	.	.	.	.	.	.	.	.	.
.	.	8A/J	.	16d/	.	8r	.	.	.	.	.	.	.	.
.	.	.	.	16d/JJ	.	.	.	.	.	.	.	.	.	.
.	.	8A/L	.	16A/LL	.	8f#/	.	.	.	.	.	.	.	.
.	.	.	.	16A/	.	.	.	.	.	.	.	.	.	.
.	.	8A/	.	16d/	.	8r	.	.	.	.	.	.	.	.
.	.	.	.	16d/JJ	.	.	.	.	.	.	.	.	.	.
.	.	8A/	.	16f#/LL	.	8g#X/	.	.	.	.	.	.	.	.
.	.	.	.	16f#/	.	.	.	.	.	.	.	.	.	.
.	.	8A/J	.	16d/	.	8r	.	.	.	.	.	.	.	.
.	.	.	.	16d/JJ	.	.	.	.	.	.	.	.	.	.
!LO:LB:g=original	!	!	!	!LO:LB:g=original	!	!	!	!	!	!	!	!	!	!
=32	=32	=32	=32	=32	=32	=32	=32	=32	=32	=32	=32	=32	=32	=32
*tremolo	*	*	*	*tremolo	*	*tremolo	*	*	*	*	*	*	*	*
!	!LO:DY:b:t=p.	!	!LO:DY:b:t=pp..	!	!	!	!LO:DY:b:t=p.	!	!LO:DY:a:t=p.	!	!	!	!	!LO:DY:b:t=p.
8AA/L	p	8A/L	pp	16A/LL	.	16a/LL	p	1A	p	1a	.	2a/	2a\	p
.	.	.	.	16A/	.	16a/	.	.	.	.	.	.	.	.
8AA/	.	8A/	.	16A/	.	16a/	.	.	.	.	.	.	.	.
.	.	.	.	16A/	.	16a/	.	.	.	.	.	.	.	.
8AA/	.	8A/	.	16A/	.	16a/	.	.	.	.	.	.	.	.
.	.	.	.	16A/	.	16a/	.	.	.	.	.	.	.	.
8AA/J	.	8A/J	.	16A/	.	16a/	.	.	.	.	.	.	.	.
.	.	.	.	16A/JJ	.	16a/JJ	.	.	.	.	.	.	.	.
8AA/L	.	8A/L	.	16g#X/LL	.	16b/LL	.	.	.	.	.	2g#X/	2b\	.
.	.	.	.	16g#X/	.	16b/	.	.	.	.	.	.	.	.
8AA/	.	8A/	.	16g#X/	.	16b/	.	.	.	.	.	.	.	.
.	.	.	.	16g#X/	.	16b/	.	.	.	.	.	.	.	.
8AA/	.	8A/	.	16g#X/	.	16b/	.	.	.	.	.	.	.	.
.	.	.	.	16g#X/	.	16b/	.	.	.	.	.	.	.	.
8AA/J	.	8A/J	.	16g#X/	.	16b/	.	.	.	.	.	.	.	.
.	.	.	.	16g#X/JJ	.	16b/JJ	.	.	.	.	.	.	.	.
=33	=33	=33	=33	=33	=33	=33	=33	=33	=33	=33	=33	=33	=33	=33
!	!	!	!	!	!LO:HP:t=Cres	!	!LO:HP:t=Cres.	!	!LO:HP:t=CS.	!	!	!	!	!LO:HP:t=Cres.
8AA/L	.	8A/L	.	16a/LL	<	16cc#\LL	<	1A	<[	1a	.	2a/	2cc#\	<
.	.	.	.	16a/	.	16cc#\	.	.	.	.	.	.	.	.
8AA/	.	8A/	.	16a/	.	16cc#\	.	.	.	.	.	.	.	.
.	.	.	.	16a/	.	16cc#\	.	.	.	.	.	.	.	.
8AA/	.	8A/	.	16a/	.	16cc#\	.	.	.	.	.	.	.	.
.	.	.	.	16a/	.	16cc#\	.	.	.	.	.	.	.	.
8AA/J	.	8A/J	.	16a/	.	16cc#\	.	.	.	.	.	.	.	.
.	.	.	.	16a/JJ	.	16cc#\JJ	.	.	.	.	.	.	.	.
8AA/L	.	8A/L	.	16b/LL	[	16dd\LL	[	.	.	.	.	2b/	2dd\	[
.	.	.	.	16b/	.	16dd\	.	.	.	.	.	.	.	.
8AA/	.	8A/	.	16b/	.	16dd\	.	.	.	.	.	.	.	.
.	.	.	.	16b/	.	16dd\	.	.	.	.	.	.	.	.
8AA/	.	8A/	.	16b/	.	16dd\	.	.	.	.	.	.	.	.
.	.	.	.	16b/	.	16dd\	.	.	.	.	.	.	.	.
8AA/J	.	8A/J	.	16b/	.	16dd\	.	.	.	.	.	.	.	.
.	.	.	.	16b/JJ	.	16dd\JJ	.	.	.	.	.	.	.	.
=34	=34	=34	=34	=34	=34	=34	=34	=34	=34	=34	=34	=34	=34	=34
!	!LO:HP:t=cres.	!	!LO:HP:t=Cres	!	!	!	!	!	!LO:DY:a:t=ff&colon;	!	!	!	!	!
8AA/L	<	8A/L	<	16cc#\LL	.	16ee\LL	.	1A	ff	1a	.	2cc#\	2ee\	.
.	.	.	.	16cc#\	.	16ee\	.	.	.	.	.	.	.	.
8AA/	.	8A/	.	16cc#\	.	16ee\	.	.	.	.	.	.	.	.
.	.	.	.	16cc#\	.	16ee\	.	.	.	.	.	.	.	.
8AA/	.	8A/	.	16cc#\	.	16ee\	.	.	.	.	.	.	.	.
.	.	.	.	16cc#\	.	16ee\	.	.	.	.	.	.	.	.
8AA/J	.	8A/J	.	16cc#\	.	16ee\	.	.	.	.	.	.	.	.
.	.	.	.	16cc#\JJ	.	16ee\JJ	.	.	.	.	.	.	.	.
8AA/L	[	8A/L	[	16dd\LL	.	16ff#\LL	.	.	.	.	.	4dd\	4ff#\	.
.	.	.	.	16dd\	.	16ff#\	.	.	.	.	.	.	.	.
8AA/	.	8A/	.	16dd\	.	16ff#\	.	.	.	.	.	.	.	.
.	.	.	.	16dd\JJ	.	16ff#\JJ	.	.	.	.	.	.	.	.
8AA/	.	8A/	.	16b\LL	.	16gg#X\LL	.	.	.	.	.	4b\	4gg#X\	.
.	.	.	.	16b\	.	16gg#X\	.	.	.	.	.	.	.	.
8AA/J	.	8A/J	.	16b\	.	16gg#X\	.	.	.	.	.	.	.	.
.	.	.	.	16b\JJ	.	16gg#X\JJ	.	.	.	.	.	.	.	.
!	!	!	!	!	!	!	!	!	!	!	!	!	!LO:LB:g=original	!
*	*	*	*	*Xtremolo	*	*Xtremolo	*	*	*	*	*	*	*	*
=35	=35	=35	=35	=35	=35	=35	=35	=35	=35	=35	=35	=35	=35	=35
!	!	!	!LO:DY:b:t=f.	!	!LO:DY:b:t=f.	!	!	!	!	!	!	!	!	!
8AA/L	.	8G/L	f	16dd\LL	f	4aa\	.	4A/	.	4a/	.	4cc#\	4aa\	.
.	.	.	.	16dd\	.	.	.	.	.	.	.	.	.	.
8AA/	.	8G/	.	16a\	.	.	.	.	.	.	.	.	.	.
.	.	.	.	16a\JJ	.	.	.	.	.	.	.	.	.	.
!	!	!	!	!	!	!	!LO:DY:b:t=f.	!	!	!	!	!	!	!
8AA/	.	8G/	.	16ff#\LL	.	(16aa\LL	f	4r	.	4r	.	4dd\	4ff#\	.
.	.	.	.	16ff#\	.	16gg#X\	.	.	.	.	.	.	.	.
8AA/J	.	8G/J	.	16dd\	.	16ff#\)	.	.	.	.	.	.	.	.
.	.	.	.	16dd\JJ	.	16ee\JJ	.	.	.	.	.	.	.	.
!	!	!LO:LB:g=original	!	!	!	!	!	!	!	!	!	!	!	!
8AA/L	.	8A/L	.	16cc#\LL	.	4aa\	.	4A/	.	4a/	.	4cc#\	4ee\	.
.	.	.	.	16cc#\	.	.	.	.	.	.	.	.	.	.
8AA/	.	8A/	.	16a\	.	.	.	.	.	.	.	.	.	.
.	.	.	.	16a\JJ	.	.	.	.	.	.	.	.	.	.
8AA/	.	8A/	.	16ff#\LL	.	16aa\LL	.	4r	.	4r	.	4dd\	4ff#\	.
.	.	.	.	16ff#\	.	16gg#X\	.	.	.	.	.	.	.	.
8AA/J	.	8A/J	.	16dd\	.	16ff#\	.	.	.	.	.	.	.	.
.	.	.	.	16dd\JJ	.	16ee\JJ	.	.	.	.	.	.	.	.
!	!	!	!	!	!	!LO:LB:g=original	!	!	!	!	!	!LO:LB:g=original	!	!
*Xtremolo	*	*Xtremolo	*	*	*	*	*	*	*	*	*	*	*	*
=36	=36	=36	=36	=36	=36	=36	=36	=36	=36	=36	=36	=36	=36	=36
8AA/L	.	8A/L	.	8.cc#\L	.	4ccc#\	.	2A/	.	2a/	.	2cc#\	2ee\	.
8AA/	.	8A/	.	.	.	.	.	.	.	.	.	.	.	.
.	.	.	.	16aa\K	.	.	.	.	.	.	.	.	.	.
8BB/	.	8B/	.	8gg#X\	.	8.bb\L	.	.	.	.	.	.	.	.
8BB/J	.	8B/J	.	8ff#\J	.	.	.	.	.	.	.	.	.	.
.	.	.	.	.	.	16aa\Jk	.	.	.	.	.	.	.	.
!	!LO:DY:b:t=f.	!	!	!	!	!	!	!	!	!	!	!	!	!
8C#/L	f	8c#\L	.	8.ee\L	.	8.gg#X\L	.	2r	.	2r	.	2r	2r	.
8C#/	.	8c#\	.	.	.	.	.	.	.	.	.	.	.	.
.	.	.	.	16dd\K	.	16ff#\Jk	.	.	.	.	.	.	.	.
8D/	.	8d\	.	8cc#\	.	8.ee\L	.	.	.	.	.	.	.	.
8D/J	.	8d\J	.	8b\J	.	.	.	.	.	.	.	.	.	.
.	.	.	.	.	.	16dd\Jk	.	.	.	.	.	.	.	.
=37	=37	=37	=37	=37	=37	=37	=37	=37	=37	=37	=37	=37	=37	=37
*tremolo	*	*tremolo	*	*	*	*	*	*	*	*	*	*	*	*
8E\L	.	8e\L	.	2a/	.	2cc#\	.	2ee\	.	2ff#\	.	2a/	2cc#\	.
8E\	.	8e\	.	.	.	.	.	.	.	.	.	.	.	.
8E\	.	8e\	.	.	.	.	.	.	.	.	.	.	.	.
8E\J	.	8e\J	.	.	.	.	.	.	.	.	.	.	.	.
!	!	!	!	!	!	!LO:TX:a:t=t	!	!	!	!	!	!	!LO:TX:a:t=t	!
8EE/L	.	8E/L	.	2g#X/	.	2b\	.	2ee\	.	2ee\	.	2g#X/	2b\	.
8EE/	.	8E/	.	.	.	.	.	.	.	.	.	.	.	.
8EE/	.	8E/	.	.	.	.	.	.	.	.	.	.	.	.
8EE/J	.	8E/J	.	.	.	.	.	.	.	.	.	.	.	.
!	!	!	!	!	!	!	!	!LO:LB:g=original	!	!	!	!	!	!
*Xtremolo	*	*Xtremolo	*	*	*	*	*	*	*	*	*	*	*	*
=38	=38	=38	=38	=38	=38	=38	=38	=38	=38	=38	=38	=38	=38	=38
8AA/L	.	8c#\L	.	4.a`/	.	4.a`/	.	4A/	.	4a/	.	4a/	4cc#\	.
8C#/	.	8e\	.	.	.	.	.	.	.	.	.	.	.	.
8D/	.	8f#\	.	.	.	.	.	4r	.	4r	.	4r	4r	.
8BB/J	.	8d\J	.	(16b/LL	.	(16b/LL	.	.	.	.	.	.	.	.
.	.	.	.	16g/JJ)	.	16g#X/JJ)	.	.	.	.	.	.	.	.
!	!	!	!	!LO:LB:g=original	!	!	!	!	!	!	!	!	!	!
8AA/L	.	8c#\L	.	4.a`/	.	4.a`/	.	4A/	.	4a/	.	4a/	4cc#\	.
8C#/	.	8e\	.	.	.	.	.	.	.	.	.	.	.	.
8D/	.	8f#\	.	.	.	.	.	4r	.	4r	.	4r	4r	.
8BB/J	.	8d\J	.	(16b/LL	.	(16b/LL	.	.	.	.	.	.	.	.
.	.	.	.	16g/JJ)	.	16g#/JJ)	.	.	.	.	.	.	.	.
!LO:LB:g=original	!	!	!	!	!	!	!	!	!	!LO:LB:g=original	!	!	!	!
=39	=39	=39	=39	=39	=39	=39	=39	=39	=39	=39	=39	=39	=39	=39
8AA/L	.	8c#\L	.	4.a/	.	4.a`/	.	2A/	.	2a/	.	2a/	2cc#\	.
8C#/	.	8A\	.	.	.	.	.	.	.	.	.	.	.	.
8F#/	.	8a\	.	.	.	.	.	.	.	.	.	.	.	.
8C#/J	.	8e\J	.	(16dd\LL	.	(16dd\LL	.	.	.	.	.	.	.	.
.	.	.	.	16cc#\JJ)	.	16cc#\JJ)	.	.	.	.	.	.	.	.
!LO:TX:t=P:problem=mixed beam	!	!	!	!	!	!	!	!	!	!	!	!	!	!
8D\L	.	8f#\L	.	4.b\	.	4.b`\	.	4r	.	4r	.	4r	4r	.
8BB\	.	8d\	.	.	.	.	.	.	.	.	.	.	.	.
8E\	.	8B\	.	.	.	.	.	4ee\	.	4ee\	.	4g#X/	4b\	.
8EE/J	.	8e\J	.	(16ee\LL	.	(16ee\LL	.	.	.	.	.	.	.	.
.	.	.	.	16g#X\JJ)	.	16g#X\JJ)	.	.	.	.	.	.	.	.
=40	=40	=40	=40	=40	=40	=40	=40	=40	=40	=40	=40	=40	=40	=40
8AA/L	.	8c#\L	.	4.a`/	.	4.a`/	.	2A/	.	4a/	.	4a/	4cc#\	.
8C#/	.	8e\	.	.	.	.	.	.	.	.	.	.	.	.
8D/	.	8f#\	.	.	.	.	.	.	.	4r	.	4r	4r	.
8BB/J	.	8d\J	.	(16b/LL	.	(16b/LL	.	.	.	.	.	.	.	.
.	.	.	.	16g/JJ)	.	16g#X/JJ)	.	.	.	.	.	.	.	.
!	!	!	!	!	!	!LO:TX:a:t=P:problem= niepełna miara taktu - ćwierćnuta	!	!	!	!	!	!	!	!
!	!	!	!	!	!	!LO:N:vis=4	!	!	!	!	!	!	!	!
8AA/L	.	8c#\L	.	4.a`/	.	4.a`/	.	2r	.	4a/	.	4a/	4cc#\	.
8C#/	.	8e\	.	.	.	.	.	.	.	.	.	.	.	.
8D/	.	8f#\	.	.	.	.	.	.	.	4r	.	4r	4r	.
8BB/J	.	8d\J	.	(16b/LL	.	(16b/LL	.	.	.	.	.	.	.	.
.	.	.	.	16g/JJ)	.	16g#/JJ)	.	.	.	.	.	.	.	.
!	!	!	!	!	!	!LO:LB:g=original	!	!	!	!	!	!	!	!
=41	=41	=41	=41	=41	=41	=41	=41	=41	=41	=41	=41	=41	=41	=41
8AA/L	.	8c#\L	.	4.a`/	.	4.a`/	.	2A/	.	2a/	.	2a/	2cc#\	.
8C#/	.	8A\	.	.	.	.	.	.	.	.	.	.	.	.
8F#/	.	8a\	.	.	.	.	.	.	.	.	.	.	.	.
8C#/J	.	8e\J	.	(16dd\LL	.	(16dd\LL	.	.	.	.	.	.	.	.
.	.	.	.	16cc#\JJ)	.	16cc#\JJ)	.	.	.	.	.	.	.	.
!LO:TX:t=P:problem=mixed beam	!	!	!	!	!	!	!	!LO:TX:a:t=P:problem=skorygowana pauza z półnutowej na ćwierćnutową	!	!	!	!	!	!
8D\L	.	8f#\L	.	4.b`\	.	4.b`\	.	4r	.	4r	.	4r	4r	.
8BB\	.	8d\	.	.	.	.	.	.	.	.	.	.	.	.
8E\	.	8B\	.	.	.	.	.	4ee\	.	4ee\	.	4g#X/	4b\	.
8EE/J	.	8e\J	.	(16ee\LL	.	(16dd\LL	.	.	.	.	.	.	.	.
.	.	.	.	16g#X\JJ)	.	16g#X\JJ)	.	.	.	.	.	.	.	.
!	!	!LO:LB:g=original	!	!	!	!	!	!	!	!	!	!	!	!
=42	=42	=42	=42	=42	=42	=42	=42	=42	=42	=42	=42	=42	=42	=42
*	*	*	*	*^	*	*	*	*	*	*	*	*	*	*
*tremolo	*	*tremolo	*	*	*	*	*	*	*	*	*	*	*	*	*
!	!	!	!	!	!	!	!	!	!	!	!	!	!	!LO:TX:a:t=P:problem= półnuta w źródle	!
!	!	!	!	!	!	!	!	!	!	!	!	!	!	!LO:N:vis=2	!
8AA/L	.	8c#\L	.	16ryy	16a\LL	.	16a\LL	.	2A/	.	2a/	.	1a	1cc#	.
.	.	.	.	16ee/LL	16cc#\	.	16a\	.	.	.	.	.	.	.	.
8AA/	.	8c#\	.	16ee/	16cc#\	.	16a\	.	.	.	.	.	.	.	.
.	.	.	.	16ee/JJ	16cc#\JJ	.	16a\JJ	.	.	.	.	.	.	.	.
*	*	*	*	*tremolo	*tremolo	*	*tremolo	*	*	*	*	*	*	*	*
8AA/	.	8c#\	.	16ee/LL	16cc#\LL	.	16cc#\LL	.	.	.	.	.	.	.	.
.	.	.	.	16ee/	16cc#\	.	16cc#\	.	.	.	.	.	.	.	.
8AA/J	.	8c#\J	.	16ee/	16cc#\	.	16cc#\	.	.	.	.	.	.	.	.
.	.	.	.	16ee/JJ	16cc#\JJ	.	16cc#\JJ	.	.	.	.	.	.	.	.
8AA/L	.	8c#\L	.	16ee/LL	16cc#\LL	.	16ee\LL	.	2r	.	2r	.	.	.	.
.	.	.	.	16ee/	16cc#\	.	16ee\	.	.	.	.	.	.	.	.
8AA/	.	8c#\	.	16ee/	16cc#\	.	16ee\	.	.	.	.	.	.	.	.
.	.	.	.	16ee/	16cc#\	.	16ee\JJ	.	.	.	.	.	.	.	.
8AA/	.	8c#\	.	16ee/	16cc#\	.	16aa\LL	.	.	.	.	.	.	.	.
.	.	.	.	16ee/	16cc#\	.	16aa\	.	.	.	.	.	.	.	.
8AA/J	.	8c#\J	.	16ee/	16cc#\	.	16aa\	.	.	.	.	.	.	.	.
.	.	.	.	16ee/JJ	16cc#\JJ	.	16aa\JJ	.	.	.	.	.	.	.	.
*	*	*	*	*	*	*	*Xtremolo	*	*	*	*	*	*	*	*
=43	=43	=43	=43	=43	=43	=43	=43	=43	=43	=43	=43	=43	=43	=43	=43
8AA/L	.	8c#\L	.	16ee/LL	16cc#\LL	.	16ggn\LL	.	1A	.	1a	.	1cc#	1ee	.
.	.	.	.	16ee/	16cc#\	.	16gg\	.	.	.	.	.	.	.	.
8AA/	.	8c#\	.	16ee/	16cc#\	.	16gg\	.	.	.	.	.	.	.	.
.	.	.	.	16ee/	16cc#\	.	16gg\JJ	.	.	.	.	.	.	.	.
*	*	*	*	*	*	*	*tremolo	*	*	*	*	*	*	*	*
8AA/	.	8c#\	.	16ee/	16cc#\	.	16ee\LL	.	.	.	.	.	.	.	.
.	.	.	.	16ee/	16cc#\	.	16ee\	.	.	.	.	.	.	.	.
8AA/J	.	8c#\J	.	16ee/	16cc#\	.	16ee\	.	.	.	.	.	.	.	.
.	.	.	.	16ee/JJ	16cc#\JJ	.	16ee\JJ	.	.	.	.	.	.	.	.
8AA/L	.	8c#\L	.	16ee/LL	16cc#\LL	.	16cc#\LL	.	.	.	.	.	.	.	.
.	.	.	.	16ee/	16cc#\	.	16cc#\	.	.	.	.	.	.	.	.
8AA/	.	8c#\	.	16ee/	16cc#\	.	16cc#\	.	.	.	.	.	.	.	.
.	.	.	.	16ee/	16cc#\	.	16cc#\JJ	.	.	.	.	.	.	.	.
8AA/	.	8c#\	.	16ee/	16cc#\	.	16g/LL	.	.	.	.	.	.	.	.
.	.	.	.	16ee/	16cc#\	.	16g/	.	.	.	.	.	.	.	.
8AA/J	.	8c#\J	.	16ee/	16cc#\	.	16g/	.	.	.	.	.	.	.	.
.	.	.	.	16ee/JJ	16cc#\JJ	.	16g/JJ	.	.	.	.	.	.	.	.
*	*	*	*	*	*	*	*Xtremolo	*	*	*	*	*	*	*	*
!	!	!	!	!LO:LB:g=original	!	!	!	!	!	!	!	!	!	!LO:LB:g=original	!
=44	=44	=44	=44	=44	=44	=44	=44	=44	=44	=44	=44	=44	=44	=44	=44
8D\L	.	8d\L	.	16dd/LL	16b\LL	.	16f#/LL	.	4d/	.	4dd\	.	4dd\	4ff#\	.
.	.	.	.	16dd/	16b\	.	16f#/	.	.	.	.	.	.	.	.
8D\	.	8d\	.	16dd/	16b\	.	16f#/	.	.	.	.	.	.	.	.
.	.	.	.	16dd/	16b\	.	16f#/JJ	.	.	.	.	.	.	.	.
*	*	*	*	*	*	*	*tremolo	*	*	*	*	*	*	*	*
8D\	.	8d\	.	16dd/	16b\	.	16b\LL	.	4r	.	4r	.	4r	4r	.
.	.	.	.	16dd/	16b\	.	16b\	.	.	.	.	.	.	.	.
8D\J	.	8d\J	.	16dd/	16b\	.	16b\	.	.	.	.	.	.	.	.
.	.	.	.	16dd/JJ	16b\JJ	.	16b\JJ	.	.	.	.	.	.	.	.
8BB/L	.	8d\L	.	16dd/LL	16b\LL	.	16dd\LL	.	2r	.	2ryy	.	2r	2r	.
.	.	.	.	16dd/	16b\	.	16dd\	.	.	.	.	.	.	.	.
8BB/	.	8d\	.	16dd/	16b\	.	16dd\	.	.	.	.	.	.	.	.
.	.	.	.	16dd/	16b\	.	16dd\JJ	.	.	.	.	.	.	.	.
8BB/	.	8d\	.	16dd/	16b\	.	16ff#\LL	.	.	.	.	.	.	.	.
.	.	.	.	16dd/	16b\	.	16ff#\	.	.	.	.	.	.	.	.
8BB/J	.	8d\J	.	16dd/	16b\	.	16ff#\	.	.	.	.	.	.	.	.
.	.	.	.	16dd/JJ	16b\JJ	.	16ff#\JJ	.	.	.	.	.	.	.	.
!	!	!	!	!	!	!	!	!	!	!	!	!	!LO:LB:g=original	!	!
=45	=45	=45	=45	=45	=45	=45	=45	=45	=45	=45	=45	=45	=45	=45	=45
*	*	*	*	*tremolo	*tremolo	*	*	*	*	*	*	*	*	*	*
8F#\L	.	8f#\L	.	16cc#/LL	16a#X\LL	.	16ee\LL	.	1f#	.	2ff#\	.	1a#X	1cc#	.
.	.	.	.	16cc#/	16a#X\	.	16ee\	.	.	.	.	.	.	.	.
8F#\	.	8f#\	.	16cc#/	16a#X\	.	16ee\	.	.	.	.	.	.	.	.
.	.	.	.	16cc#/	16a#X\	.	16ee\JJ	.	.	.	.	.	.	.	.
8F#\	.	8f#\	.	16cc#/	16a#X\	.	16cc#\LL	.	.	.	.	.	.	.	.
.	.	.	.	16cc#/	16a#X\	.	16cc#\	.	.	.	.	.	.	.	.
8F#\J	.	8f#\J	.	16cc#/	16a#X\	.	16cc#\	.	.	.	.	.	.	.	.
.	.	.	.	16cc#/JJ	16a#X\JJ	.	16cc#\JJ	.	.	.	.	.	.	.	.
!	!	!	!	!	!	!	!LO:LB:g=original	!	!	!	!	!	!	!	!
8FF#/L	.	8f#\L	.	16cc#/LL	16a#\LL	.	16a#X/LL	.	.	.	2ff#\	.	.	.	.
.	.	.	.	16cc#/	16a#\	.	16a#X/	.	.	.	.	.	.	.	.
8FF#/	.	8f#\	.	16cc#/	16a#\	.	16a#X/	.	.	.	.	.	.	.	.
.	.	.	.	16cc#/	16a#\	.	16a#X/JJ	.	.	.	.	.	.	.	.
8FF#/	.	8f#\	.	16cc#/	16a#\	.	16e/LL	.	.	.	.	.	.	.	.
.	.	.	.	16cc#/	16a#\	.	16e/	.	.	.	.	.	.	.	.
8FF#/J	.	8f#\J	.	16cc#/	16a#\	.	16e/	.	.	.	.	.	.	.	.
.	.	.	.	16cc#/JJ	16a#\JJ	.	16e/JJ	.	.	.	.	.	.	.	.
*Xtremolo	*	*Xtremolo	*	*Xtremolo	*Xtremolo	*	*Xtremolo	*	*	*	*	*	*	*	*
*	*	*	*	*v	*v	*	*	*	*	*	*	*	*	*	*
!LO:LB:g=original	!	!	!	!	!	!	!	!LO:LB:g=original	!	!	!	!	!	!
=46	=46	=46	=46	=46	=46	=46	=46	=46	=46	=46	=46	=46	=46	=46
!	!	!	!	!	!LO:DY:a:t=p.	!	!	!	!	!	!	!	!	!
8BB\L	.	8B\L	.	8b\	p	8d/	.	4f#/	.	4ff#\	.	4b\	4dd\	.
8B\	.	8b\	.	8r	.	8r	.	.	.	.	.	.	.	.
!	!	!	!LO:DY:a:t=piano&colon;	!	!	!	!	!	!	!	!	!	!	!
8D\	.	8d\	p	8dd\	.	8bb\	.	4r	.	4r	.	4r	4r	.
8C#\J	.	8c#\J	.	8r	.	8r	.	.	.	.	.	.	.	.
8BB\L	.	8B\L	.	4r	.	4r	.	2r	.	2r	.	2r	2r	.
8C#\	.	8c#\	.	.	.	.	.	.	.	.	.	.	.	.
8D\	.	8d\	.	8cc#\	.	8bb\	.	.	.	.	.	.	.	.
8E\J	.	8e\J	.	8r	.	8r	.	.	.	.	.	.	.	.
=47	=47	=47	=47	=47	=47	=47	=47	=47	=47	=47	=47	=47	=47	=47
!LO:TX:t=P:problem=mixed beam	!	!LO:TX:t=P:problem=mixed beam	!	!	!	!	!	!	!	!LO:TX:t=4	!	!LO:TX:t=4	!LO:TX:t=4	!
8F#\L	.	8f#\L	.	4r	.	8r	.	00r	.	00r	.	00r	00r	.
8FF#/	.	8F#/	.	.	.	8aa#X\	.	.	.	.	.	.	.	.
8AA#X/	.	8A#X/	.	8cc#\	.	8r	.	.	.	.	.	.	.	.
8C#/J	.	8c#/J	.	8r	.	4r	.	.	.	.	.	.	.	.
8F#\L	.	8f#\L	.	4r	.	.	.	.	.	.	.	.	.	.
8G\	.	8g\	.	.	.	8aa#\	.	.	.	.	.	.	.	.
8E\	.	8e\	.	8cc#\	.	4r	.	.	.	.	.	.	.	.
8F#\J	.	8f#\J	.	8r	.	.	.	.	.	.	.	.	.	.
=48	=48	=48	=48	=48	=48	=48	=48	=48	=48	=48	=48	=48	=48	=48
8D#X\L	.	8d#X\L	.	4r	.	8r	.	.	.	.	.	.	.	.
8F#\	.	8f#\	.	.	.	8aan\	.	.	.	.	.	.	.	.
8B\	.	8b\	.	8b\	.	8r	.	.	.	.	.	.	.	.
8F#\J	.	8f#\J	.	8r	.	4r	.	.	.	.	.	.	.	.
8D#\L	.	8d#\L	.	4r	.	.	.	.	.	.	.	.	.	.
8BB\	.	8B\	.	.	.	8aa\	.	.	.	.	.	.	.	.
8C#\	.	8c#\	.	8b\	.	4r	.	.	.	.	.	.	.	.
8D#\J	.	8d#\J	.	8r	.	.	.	.	.	.	.	.	.	.
!	!	!LO:LB:g=original	!	!	!	!	!	!	!	!	!	!	!	!
=49	=49	=49	=49	=49	=49	=49	=49	=49	=49	=49	=49	=49	=49	=49
!LO:TX:t=P:problem=mixed beam	!	!LO:TX:t=P:problem=mixed beam	!	!	!	!	!	!	!	!	!	!	!	!
8E\L	.	8e\L	.	4r	.	8r	.	.	.	.	.	.	.	.
8EE/	.	8E/	.	.	.	8gg#X\	.	.	.	.	.	.	.	.
8GG#X/	.	8G#X/	.	8b\	.	8r	.	.	.	.	.	.	.	.
8BB/J	.	8B/J	.	8r	.	4r	.	.	.	.	.	.	.	.
8E\L	.	8e\L	.	4r	.	.	.	.	.	.	.	.	.	.
8F#\	.	8f#\	.	.	.	8gg#\	.	.	.	.	.	.	.	.
8Dn\	.	8dn\	.	8b\	.	4r	.	.	.	.	.	.	.	.
8E\J	.	8e\J	.	8r	.	.	.	.	.	.	.	.	.	.
!	!	!	!	!LO:LB:g=original	!	!LO:LB:g=original	!	!	!	!	!	!	!	!
=50	=50	=50	=50	=50	=50	=50	=50	=50	=50	=50	=50	=50	=50	=50
8C#\L	.	8d\L	.	4r	.	8r	.	.	.	.	.	.	.	.
8E\	.	8e\	.	.	.	8ggn\	.	.	.	.	.	.	.	.
8A\	.	8a\	.	8a/	.	8r	.	.	.	.	.	.	.	.
8E\J	.	8e\J	.	8r	.	4r	.	.	.	.	.	.	.	.
8C#/L	.	8c#\L	.	4r	.	.	.	.	.	.	.	.	.	.
8AA/	.	8A\	.	.	.	8gg\	.	.	.	.	.	.	.	.
8BB/	.	8B\	.	8a/	.	4r	.	.	.	.	.	.	.	.
8C#/J	.	8c#\J	.	8r	.	.	.	.	.	.	.	.	.	.
=51	=51	=51	=51	=51	=51	=51	=51	=51	=51	=51	=51	=51	=51	=51
*tremolo	*	*tremolo	*	*	*	*	*	*	*	*	*	*	*	*
!LO:TX:t=P:problem= obie nuty e poprawione na d, nad nutami litery D	!	!	!LO:DY:b:t=p.	!	!	!	!	!	!	!	!LO:DY:b:t=p.p.	!	!	!
8D\L	.	8d\L	p	4r	.	4r	.	1f#	.	1ff#	pp	1dd	1ff#	.
8D\	.	8d\	.	.	.	.	.	.	.	.	.	.	.	.
8D\	.	8d\	.	4dd\	.	4ff#\	.	.	.	.	.	.	.	.
8D\J	.	8d\J	.	.	.	.	.	.	.	.	.	.	.	.
8D\L	.	8d\L	.	(4ff#\	.	(4bb\	.	.	.	.	.	.	.	.
8D\	.	8d\	.	.	.	.	.	.	.	.	.	.	.	.
8D\	.	8d\	.	4dd\)	.	4ff#\)	.	.	.	.	.	.	.	.
8D\J	.	8d\J	.	.	.	.	.	.	.	.	.	.	.	.
!LO:LB:g=original	!	!	!	!	!	!	!	!	!	!	!	!	!	!
=52	=52	=52	=52	=52	=52	=52	=52	=52	=52	=52	=52	=52	=52	=52
8FF#/L	.	8E/L	.	4r	.	4r	.	1f#	.	1ff#	.	1cc#	1ee	.
8FF#/	.	8E/	.	.	.	.	.	.	.	.	.	.	.	.
8FF#/	.	8E/	.	4cc#\	.	(4ee\	.	.	.	.	.	.	.	.
8FF#/J	.	8E/J	.	.	.	.	.	.	.	.	.	.	.	.
8FF#/L	.	8F#/L	.	(4ee\	.	4ccc#\)	.	.	.	.	.	.	.	.
8FF#/	.	8F#/	.	.	.	.	.	.	.	.	.	.	.	.
8FF#/	.	8F#/	.	4cc#\)	.	4ee\	.	.	.	.	.	.	.	.
8FF#/J	.	8F#/J	.	.	.	.	.	.	.	.	.	.	.	.
=53	=53	=53	=53	=53	=53	=53	=53	=53	=53	=53	=53	=53	=53	=53
8BB/L	.	8B/L	.	4r	.	4r	.	2f#/	.	2ff#\	.	2b\	2dd\	.
8BB/	.	8B/	.	.	.	.	.	.	.	.	.	.	.	.
8BB/	.	8B/	.	4b\	.	4dd\	.	.	.	.	.	.	.	.
8BB/J	.	8B/J	.	.	.	.	.	.	.	.	.	.	.	.
8BB/L	.	8B/L	.	(4dd\	.	(4ff#\	.	2r	.	2r	.	2r	2r	.
8BB/	.	8B/	.	.	.	.	.	.	.	.	.	.	.	.
8BB/	.	8B/	.	4b\)	.	4dd\)	.	.	.	.	.	.	.	.
8BB/J	.	8B/J	.	.	.	.	.	.	.	.	.	.	.	.
=54	=54	=54	=54	=54	=54	=54	=54	=54	=54	=54	=54	=54	=54	=54
8C#/L	.	8c#\L	.	4r	.	4r	.	1A	.	1b	.	1r	1r	.
8C#/	.	8c#\	.	.	.	.	.	.	.	.	.	.	.	.
8C#/	.	8c#\	.	4cc#\	.	4ee\	.	.	.	.	.	.	.	.
8C#/J	.	8c#\J	.	.	.	.	.	.	.	.	.	.	.	.
8C#/L	.	8c#\L	.	(4ee\	.	(4gg\	.	.	.	.	.	.	.	.
8C#/	.	8c#\	.	.	.	.	.	.	.	.	.	.	.	.
8C#/	.	8c#\	.	4cc#\)	.	4ee\)	.	.	.	.	.	.	.	.
8C#/J	.	8c#\J	.	.	.	.	.	.	.	.	.	.	.	.
=55	=55	=55	=55	=55	=55	=55	=55	=55	=55	=55	=55	=55	=55	=55
8D\L	.	8d\L	.	4r	.	4r	.	1d	.	1dd	.	1ff#	1aa	.
8D\	.	8d\	.	.	.	.	.	.	.	.	.	.	.	.
8D\	.	8d\	.	4ff#\	.	(4aa\	.	.	.	.	.	.	.	.
8D\J	.	8d\J	.	.	.	.	.	.	.	.	.	.	.	.
8D\L	.	8d\L	.	4aa\	.	4ddd\)	.	.	.	.	.	.	.	.
8D\	.	8d\	.	.	.	.	.	.	.	.	.	.	.	.
8D\	.	8d\	.	4ff#\	.	4aa\	.	.	.	.	.	.	.	.
8D\J	.	8d\J	.	.	.	.	.	.	.	.	.	.	.	.
=56	=56	=56	=56	=56	=56	=56	=56	=56	=56	=56	=56	=56	=56	=56
8AA/L	.	8A/L	.	4r	.	4r	.	1A	.	1a	.	1ee	1gg	.
8AA/	.	8A/	.	.	.	.	.	.	.	.	.	.	.	.
8AA/	.	8A/	.	4ee\	.	4gg\	.	.	.	.	.	.	.	.
8AA/J	.	8A/J	.	.	.	.	.	.	.	.	.	.	.	.
8AA/L	.	8A/L	.	4gg\	.	4eee\	.	.	.	.	.	.	.	.
8AA/	.	8A/	.	.	.	.	.	.	.	.	.	.	.	.
8AA/	.	8A/	.	4ee\	.	4gg\	.	.	.	.	.	.	.	.
8AA/J	.	8A/J	.	.	.	.	.	.	.	.	.	.	.	.
*Xtremolo	*	*Xtremolo	*	*	*	*	*	*	*	*	*	*	*	*
!	!	!LO:LB:g=original	!	!LO:LB:g=original	!	!	!	!	!	!	!	!	!	!
=57	=57	=57	=57	=57	=57	=57	=57	=57	=57	=57	=57	=57	=57	=57
2D\	.	2d\	.	4ff#\	.	4ff#\	.	2d/	.	2dd\	.	2dd\	2ff#\	.
!	!	!	!	!	!LO:DY:b:t=f.	!	!LO:DY:b:t=f.	!	!	!	!	!	!	!
.	.	.	.	8ff#\L	f	8ff#\L	f	.	.	.	.	.	.	.
.	.	.	.	8ee\J	.	8ee\J	.	.	.	.	.	.	.	.
!	!LO:DY:b:t=f.	!	!LO:DY:b:t=f.	!	!	!LO:LB:g=original	!	!	!	!	!	!	!	!
4d\	f	4dd\	f	8dd\L	.	8dd\L	.	2r	.	2r	.	2r	2r	.
.	.	.	.	8ff#\	.	8ff#\	.	.	.	.	.	.	.	.
4c#\	.	4cc#\	.	8cc#\	.	8cc#\	.	.	.	.	.	.	.	.
.	.	.	.	8ff#\J	.	8ff#\J	.	.	.	.	.	.	.	.
!	!	!	!	!	!	!	!	!LO:LB:g=original	!	!	!	!LO:LB:g=original	!LO:LB:g=original	!
=58	=58	=58	=58	=58	=58	=58	=58	=58	=58	=58	=58	=58	=58	=58
2B\	.	2b\	.	4b\	.	4b\	.	2d/	.	2dd\	.	2b\	2dd\	.
.	.	.	.	8dd\L	.	8dd\L	.	.	.	.	.	.	.	.
.	.	.	.	8cc#\J	.	8cc#\J	.	.	.	.	.	.	.	.
4B\	.	4b\	.	8b\L	.	8b\L	.	2r	.	2r	.	2r	2r	.
.	.	.	.	8dd\	.	8dd\	.	.	.	.	.	.	.	.
4A\	.	4a\	.	8a\	.	8a\	.	.	.	.	.	.	.	.
.	.	.	.	8dd\J	.	8dd\J	.	.	.	.	.	.	.	.
!	!	!	!	!	!	!	!	!	!	!	!	!LO:TX:a:t=P:problem=pauza wykreślona kreską taktową	!	!
=59	=59	=59	=59	=59	=59	=59	=59	=59	=59	=59	=59	=59	=59	=59
4G\	.	4g\	.	4g/	.	4g/	.	2d/	.	2dd\	.	2g/	2b\	.
8B\L	.	8b\L	.	8b/L	.	8b/L	.	.	.	.	.	.	.	.
8A\J	.	8a\J	.	8a/J	.	8a/J	.	.	.	.	.	.	.	.
8G\L	.	8g\L	.	8g/L	.	8g/L	.	2r	.	2r	.	2r	2r	.
8F#\	.	8f#\	.	8f#/	.	8f#/	.	.	.	.	.	.	.	.
8E\	.	8e\	.	8e/	.	8e/	.	.	.	.	.	.	.	.
8D\J	.	8d\J	.	8d/J	.	8d/J	.	.	.	.	.	.	.	.
!LO:LB:g=original	!	!	!	!	!	!	!	!	!	!LO:LB:g=original	!	!	!	!
=60	=60	=60	=60	=60	=60	=60	=60	=60	=60	=60	=60	=60	=60	=60
4AA/	.	4A/	.	4A/	.	4A/	.	4A/	.	4a/	.	4cc#\	4ee\	.
4A\	.	4a\	.	4a/	.	4a/	.	8.A/L	.	8.a/L	.	8.dd\L	(8.ff#\L	.
.	.	.	.	.	.	.	.	16A/Jk	.	16a/Jk	.	16cc#\Jk	16ee\Jk)	.
4AA/	.	4A/	.	4A/	.	4A/	.	4A/	.	4a/	.	4cc#\	4ee\	.
4r	.	4r	.	4r	.	4r	.	4r	.	4r	.	4r	4r	.
=61	=61	=61	=61	=61	=61	=61	=61	=61	=61	=61	=61	=61	=61	=61
8D\L	.	8f#\L	.	4.d`/	.	4.d`/	.	4d/	.	4dd\	.	4f#/	4dd\	.
8F#\	.	8a\	.	.	.	.	.	.	.	.	.	.	.	.
8G\	.	8b\	.	.	.	.	.	4r	.	4r	.	4r	4r	.
8E\J	.	8g\J	.	(16e/LL	.	(16e/LL	.	.	.	.	.	.	.	.
.	.	.	.	16c#/JJ)	.	16c#/JJ)	.	.	.	.	.	.	.	.
8D\L	.	8f#\L	.	4.d`/	.	4.d`/	.	4d/	.	4dd\	.	4f#/	4dd\	.
8F#\	.	8a\	.	.	.	.	.	.	.	.	.	.	.	.
8G\	.	8b\	.	.	.	.	.	4r	.	4r	.	4r	4r	.
8E\J	.	8g\J	.	(16e/LL	.	(16e/LL	.	.	.	.	.	.	.	.
.	.	.	.	16c#/JJ)	.	16c#/JJ)	.	.	.	.	.	.	.	.
=62	=62	=62	=62	=62	=62	=62	=62	=62	=62	=62	=62	=62	=62	=62
8D\L	.	8f#\L	.	4.d'/	.	4.d`/	.	2d/	.	2dd\	.	2f#/	2dd\	.
8F#\	.	8d\	.	.	.	.	.	.	.	.	.	.	.	.
8B\	.	8dd\	.	.	.	.	.	.	.	.	.	.	.	.
8F#\J	.	8a\J	.	(16g/LL	.	(16g/LL	.	.	.	.	.	.	.	.
.	.	.	.	16f#/JJ)	.	16f#/JJ)	.	.	.	.	.	.	.	.
!LO:TX:t=P:problem=mixed beam	!	!	!	!	!	!	!	!	!	!	!	!	!	!
8G\L	.	8b\L	.	4.e`/	.	4.e`/	.	4r	.	4r	.	4r	4r	.
8E\	.	8g\	.	.	.	.	.	.	.	.	.	.	.	.
8A\	.	8e\	.	.	.	.	.	4a/	.	4ee\	.	4a/	4ee\	.
8AA/J	.	8a\J	.	(16a/LL	.	(16a/LL	.	.	.	.	.	.	.	.
.	.	.	.	16c#/JJ)	.	16c#/JJ)	.	.	.	.	.	.	.	.
=63	=63	=63	=63	=63	=63	=63	=63	=63	=63	=63	=63	=63	=63	=63
8D\L	.	8f#\L	.	4.d`/	.	4.d`/	.	4d/	.	4ff#\	.	4f#/	4ff#\	.
8F#\	.	8a\	.	.	.	.	.	.	.	.	.	.	.	.
8G\	.	8b\	.	.	.	.	.	4r	.	4r	.	4r	4r	.
8E\J	.	8g\J	.	(16e/LL	.	(16e/LL	.	.	.	.	.	.	.	.
.	.	.	.	16B/JJ)	.	16B/JJ)	.	.	.	.	.	.	.	.
!	!	!	!	!LO:LB:g=original	!	!LO:LB:g=original	!	!	!	!	!	!	!	!
8D\L	.	8f#\L	.	4.d`/	.	4.d/	.	4d/	.	4ee\	.	4f#/	4dd\	.
8F#\	.	8a\	.	.	.	.	.	.	.	.	.	.	.	.
8G\	.	8b\	.	.	.	.	.	4r	.	4r	.	4r	4r	.
8E\J	.	8g\J	.	(16e/LL	.	(16e/LL	.	.	.	.	.	.	.	.
.	.	.	.	16c#/JJ)	.	16c#/JJ)	.	.	.	.	.	.	.	.
!	!	!LO:LB:g=original	!	!	!	!	!	!	!	!	!	!	!	!
=64	=64	=64	=64	=64	=64	=64	=64	=64	=64	=64	=64	=64	=64	=64
8D\L	.	8f#\L	.	4.d/	.	4.d`/	.	2d/	.	2dd\	.	2f#/	2dd\	.
8F#\	.	8d\	.	.	.	.	.	.	.	.	.	.	.	.
8B\	.	8dd\	.	.	.	.	.	.	.	.	.	.	.	.
8F#\J	.	8a\J	.	(16g/LL	.	(16g/LL	.	.	.	.	.	.	.	.
.	.	.	.	16f#/JJ)	.	16f#/JJ)	.	.	.	.	.	.	.	.
!	!	!	!	!	!	!LO:TX:a:t=P:problem= niepełna miara taktu - ćwierćnuta	!	!	!	!	!	!	!	!
!LO:TX:t=P:problem=mixed beam	!	!	!	!	!	!LO:N:vis=4	!	!	!	!	!	!	!	!
8G\L	.	8b\L	.	4.e`/	.	4.e`/	.	4r	.	4r	.	4r	4r	.
8E\	.	8g\	.	.	.	.	.	.	.	.	.	.	.	.
8A\	.	8e\	.	.	.	.	.	4a/	.	4ee\	.	4a/	4ee\	.
8AA/J	.	8a\J	.	(16a/LL	.	(16a/LL	.	.	.	.	.	.	.	.
.	.	.	.	16c#/JJ)	.	16c#/JJ)	.	.	.	.	.	.	.	.
!	!	!	!	!	!	!	!	!LO:LB:g=original	!	!	!	!	!	!
=65	=65	=65	=65	=65	=65	=65	=65	=65	=65	=65	=65	=65	=65	=65
*tremolo	*	*tremolo	*	*	*	*	*	*	*	*	*	*	*	*
8D\L	.	8f#\L	.	4d/	.	4d/	.	4d/	.	4ff#\	.	4f#/	4ff#\	.
8D\	.	8f#\	.	.	.	.	.	.	.	.	.	.	.	.
8D\	.	8f#\	.	4dd\	.	4dd\	.	4r	.	4r	.	4r	4r	.
8D\J	.	8f#\J	.	.	.	.	.	.	.	.	.	.	.	.
8F#\L	.	8A/L	.	8r	.	8r	.	2r	.	2r	.	2r	2r	.
8F#\	.	8A/	.	16a/LL	.	16a/LL	.	.	.	.	.	.	.	.
.	.	.	.	16g/JJ	.	16g/JJ	.	.	.	.	.	.	.	.
8F#\	.	8A/	.	8f#/L	.	8f#/L	.	.	.	.	.	.	.	.
8F#\J	.	8A/J	.	16e/L	.	16e/L	.	.	.	.	.	.	.	.
.	.	.	.	16d/JJ	.	16d/JJ	.	.	.	.	.	.	.	.
!	!	!	!	!	!	!	!	!	!	!	!	!LO:LB:g=original	!LO:LB:g=original	!
*Xtremolo	*	*Xtremolo	*	*	*	*	*	*	*	*	*	*	*	*
=66	=66	=66	=66	=66	=66	=66	=66	=66	=66	=66	=66	=66	=66	=66
.	.	.	.	8qqf#/	.	8qqf#/	.	.	.	.	.	.	.	.
8G\L	.	8B\L	.	8e/L	.	8e/L	.	1r	.	1r	.	4b/	4ee\	.
8G\	.	8B\	.	16d/L	.	16d/L	.	.	.	.	.	.	.	.
.	.	.	.	16e/JJ	.	16e/JJ	.	.	.	.	.	.	.	.
.	.	.	.	8qqg/	.	8qqg/	.	.	.	.	.	.	.	.
8A\	.	8c#\	.	8f#/L	.	8f#/L	.	.	.	.	.	4a/	4ff#\	.
8A\J	.	8c#\J	.	16e/L	.	16e/L	.	.	.	.	.	.	.	.
.	.	.	.	16f#/JJ	.	16f#/JJ	.	.	.	.	.	.	.	.
.	.	.	.	8qqa/	.	8qqa/	.	.	.	.	.	.	8qqaa/	.
!LO:LB:g=original	!	!	!	!	!	!	!	!	!	!	!	!	!	!
8B\L	.	8d\L	.	8g/L	.	8g/L	.	.	.	.	.	4g/	2gg\	.
8B\	.	8d\	.	16f#/L	.	16f#/L	.	.	.	.	.	.	.	.
.	.	.	.	16g/JJ	.	16g/JJ	.	.	.	.	.	.	.	.
8c#\	.	8e\	.	8.a/L	.	8.a/L	.	.	.	.	.	4f#/	.	.
8c#\J	.	8e\J	.	.	.	.	.	.	.	.	.	.	.	.
.	.	.	.	16g/Jk	.	16g/Jk	.	.	.	.	.	.	.	.
!	!	!	!	!	!	!	!	!	!	!LO:LB:g=original	!	!	!	!
=67	=67	=67	=67	=67	=67	=67	=67	=67	=67	=67	=67	=67	=67	=67
*tremolo	*	*tremolo	*	*	*	*	*	*	*	*	*	*	*	*
8d\L	.	8A/L	.	4f#/	.	4f#/	.	2d/	.	2dd\	.	2d/	2ff#\	.
8d\	.	8A/	.	.	.	.	.	.	.	.	.	.	.	.
8d\	.	8A/	.	4dd\	.	4dd\	.	.	.	.	.	.	.	.
8d\J	.	8A/J	.	.	.	.	.	.	.	.	.	.	.	.
8F#\L	.	8A/L	.	8r	.	8r	.	2r	.	2r	.	2r	2r	.
8F#\	.	8A/	.	16a/LL	.	(16a/LL	.	.	.	.	.	.	.	.
.	.	.	.	16g/JJ	.	16g/JJ)	.	.	.	.	.	.	.	.
8F#\	.	8A/	.	8f#/L	.	8f#/L	.	.	.	.	.	.	.	.
8F#\J	.	8A/J	.	16e/L	.	16e/L	.	.	.	.	.	.	.	.
.	.	.	.	16d/JJ	.	16d/JJ	.	.	.	.	.	.	.	.
*Xtremolo	*	*Xtremolo	*	*	*	*	*	*	*	*	*	*	*	*
!	!	!	!	!	!	!LO:LB:g=original	!	!	!	!	!	!	!	!
=68	=68	=68	=68	=68	=68	=68	=68	=68	=68	=68	=68	=68	=68	=68
.	.	.	.	8qqf#/	.	8qqf#/	.	.	.	.	.	.	.	.
8G\L	.	8B\L	.	8e/L	.	8e/L	.	1r	.	1r	.	4b/	4ee\	.
8G\	.	8B\	.	16d/L	.	16d/L	.	.	.	.	.	.	.	.
.	.	.	.	16e/JJ	.	16e/JJ	.	.	.	.	.	.	.	.
.	.	.	.	8qqg/	.	8qqg/	.	.	.	.	.	.	.	.
8A\	.	8c#\	.	8f#/L	.	8f#/L	.	.	.	.	.	4a/	4ff#\	.
8A\J	.	8c#\J	.	16e/L	.	16e/L	.	.	.	.	.	.	.	.
.	.	.	.	16f#/JJ	.	16f#/JJ	.	.	.	.	.	.	.	.
!	!	!	!	!LO:LB:g=original	!	!	!	!	!	!	!	!	!	!
!	!	!	!	!LO:TX:b:i:t=problem: ósemka z kropką - przepełniona miara taktu	!	!	!	!	!	!	!	!	!	!
.	.	.	.	8qqa/	.	8qqa/	.	.	.	.	.	.	8qqaa/	.
8B\L	.	8d\L	.	8g/L	.	8g/L	.	.	.	.	.	4g/	2gg\	.
8B\	.	8d\	.	16f#/L	.	16f#/L	.	.	.	.	.	.	.	.
.	.	.	.	16g/JJ	.	16g/JJ	.	.	.	.	.	.	.	.
8c#\	.	8e\	.	8.a/L	.	8.a/L	.	.	.	.	.	4f#/	.	.
8c#\J	.	8e\J	.	.	.	.	.	.	.	.	.	.	.	.
.	.	.	.	16g/Jk	.	16g/Jk	.	.	.	.	.	.	.	.
=69	=69	=69	=69	=69	=69	=69	=69	=69	=69	=69	=69	=69	=69	=69
*	*	*	*	*tremolo	*	*	*	*	*	*	*	*	*	*
8d\L	.	8d\L	.	16f#/LL	.	16f#/LL	.	2d/	.	2dd\	.	2d/	2aa\	.
.	.	.	.	16f#/	.	16f#/	.	.	.	.	.	.	.	.
8d\	.	8d\	.	16f#/	.	16f#/	.	.	.	.	.	.	.	.
.	.	.	.	16f#/JJ	.	16f#/JJ	.	.	.	.	.	.	.	.
*	*	*	*	*	*	*tremolo	*	*	*	*	*	*	*	*
8F#\	.	8a\	.	16dd\LL	.	16dd\LL	.	.	.	.	.	.	.	.
.	.	.	.	16dd\	.	16dd\	.	.	.	.	.	.	.	.
8F#\J	.	8a\J	.	16dd\	.	16dd\	.	.	.	.	.	.	.	.
.	.	.	.	16dd\JJ	.	16dd\JJ	.	.	.	.	.	.	.	.
8G\L	.	8d\L	.	16b\LL	.	16b\LL	.	2r	.	2r	.	2cc#\	2bb\	.
.	.	.	.	16b\	.	16b\	.	.	.	.	.	.	.	.
8G\	.	8d\	.	16b\	.	16b\	.	.	.	.	.	.	.	.
.	.	.	.	16b\JJ	.	16b\JJ	.	.	.	.	.	.	.	.
8E\	.	8b\	.	16gg\LL	.	16gg\LL	.	.	.	.	.	.	.	.
.	.	.	.	16gg\	.	16gg\	.	.	.	.	.	.	.	.
8E\J	.	8b\J	.	16gg\	.	16gg\	.	.	.	.	.	.	.	.
.	.	.	.	16gg\JJ	.	16gg\JJ	.	.	.	.	.	.	.	.
*	*	*	*	*Xtremolo	*	*Xtremolo	*	*	*	*	*	*	*	*
=70	=70	=70	=70	=70	=70	=70	=70	=70	=70	=70	=70	=70	=70	=70
*tremolo	*	*tremolo	*	*	*	*	*	*	*	*	*	*	*	*
8A\L	.	8a\L	.	2a/	.	2a\	.	2A/	.	2g/	.	2dd\	2ff#\	.
8A\	.	8a\	.	.	.	.	.	.	.	.	.	.	.	.
8A\	.	8a\	.	.	.	.	.	.	.	.	.	.	.	.
8A\J	.	8a\J	.	.	.	.	.	.	.	.	.	.	.	.
!	!	!	!	!LO:TX:a:t=t	!	!	!	!	!	!	!	!	!LO:TX:a:t=t	!
8AA/L	.	8a\L	.	2ee\	.	2eeT\	.	2A/	.	2a/	.	2cc#\	2ee\	.
8AA/	.	8a\	.	.	.	.	.	.	.	.	.	.	.	.
8AA/	.	8a\	.	.	.	.	.	.	.	.	.	.	.	.
8AA/J	.	8a\J	.	.	.	.	.	.	.	.	.	.	.	.
*Xtremolo	*	*	*	*	*	*	*	*	*	*	*	*	*	*
!	!	!LO:LB:g=original	!	!	!	!	!	!	!	!	!	!	!	!
=71	=71	=71	=71	=71	=71	=71	=71	=71	=71	=71	=71	=71	=71	=71
2D\	.	8d\L	.	16d/LL	.	2dd\	.	2A/	.	2dd\	.	2dd\	2dd,\	.
.	.	.	.	16d/	.	.	.	.	.	.	.	.	.	.
.	.	8d\	.	16f#/	.	.	.	.	.	.	.	.	.	.
.	.	.	.	16f#/JJ	.	.	.	.	.	.	.	.	.	.
.	.	8d\	.	16a/LL	.	.	.	.	.	.	.	.	.	.
.	.	.	.	16a/	.	.	.	.	.	.	.	.	.	.
.	.	8d\J	.	16dd/	.	.	.	.	.	.	.	.	.	.
.	.	.	.	16dd/JJ	.	.	.	.	.	.	.	.	.	.
2r	.	8d\L	.	16ff#\LL	.	2r	.	2r	.	2r	.	2r	2r	.
.	.	.	.	16ff#\	.	.	.	.	.	.	.	.	.	.
.	.	8d\	.	16dd\	.	.	.	.	.	.	.	.	.	.
.	.	.	.	16dd\JJ	.	.	.	.	.	.	.	.	.	.
.	.	8d\	.	16a/LL	.	.	.	.	.	.	.	.	.	.
.	.	.	.	16a/	.	.	.	.	.	.	.	.	.	.
.	.	8d\J	.	16f#/	.	.	.	.	.	.	.	.	.	.
.	.	.	.	16f#/JJ	.	.	.	.	.	.	.	.	.	.
=72	=72	=72	=72	=72	=72	=72	=72	=72	=72	=72	=72	=72	=72	=72
!LO:TX:a:t=3	!	!	!	!	!	!	!	!LO:TX:a:t=3	!	!LO:TX:a:t=3	!	!LO:TX:a:t=3	!LO:TX:a:t=3	!
0r	.	8d\L	p	16d/LL	.	2cccn\	.	0r	.	0r	.	0r	0r	.
.	.	.	.	16d/	.	.	.	.	.	.	.	.	.	.
.	.	8d\	.	16f#/	.	.	.	.	.	.	.	.	.	.
.	.	.	.	16f#/JJ	.	.	.	.	.	.	.	.	.	.
.	.	8d\	.	16a/LL	.	.	.	.	.	.	.	.	.	.
.	.	.	.	16a/	.	.	.	.	.	.	.	.	.	.
!	!	!	!	!LO:TX:t=P:problem= nad tą i następną nutą skreślona 16d	!	!	!	!	!	!	!	!	!	!
!	!	!	!	!	!LO:DY:b:t=f.f.	!	!	!	!	!	!	!	!	!
.	.	8d\J	.	16f#/	ff	.	.	.	.	.	.	.	.	.
.	.	.	.	16f#/JJ	.	.	.	.	.	.	.	.	.	.
.	.	8d\L	.	16d/LL	.	4aa\	.	.	.	.	.	.	.	.
.	.	.	.	16d/	.	.	.	.	.	.	.	.	.	.
.	.	8d\	.	16f#/	.	.	.	.	.	.	.	.	.	.
.	.	.	.	16f#/JJ	.	.	.	.	.	.	.	.	.	.
.	.	8d\	.	16a/LL	.	4r	.	.	.	.	.	.	.	.
.	.	.	.	16a/	.	.	.	.	.	.	.	.	.	.
.	.	8d\J	.	16f#/	.	.	.	.	.	.	.	.	.	.
.	.	.	.	16f#/JJ	.	.	.	.	.	.	.	.	.	.
!	!	!	!	!LO:LB:g=original	!	!	!	!	!	!	!	!	!	!
=73	=73	=73	=73	=73	=73	=73	=73	=73	=73	=73	=73	=73	=73	=73
.	.	8d\L	.	16d/LL	.	2bb\	.	.	.	.	.	.	.	.
.	.	.	.	16d/	.	.	.	.	.	.	.	.	.	.
.	.	8d\	.	16g/	.	.	.	.	.	.	.	.	.	.
.	.	.	.	16g/JJ	.	.	.	.	.	.	.	.	.	.
.	.	8d\	.	16b/LL	.	.	.	.	.	.	.	.	.	.
.	.	.	.	16b/	.	.	.	.	.	.	.	.	.	.
.	.	8d\J	.	16g/	.	.	.	.	.	.	.	.	.	.
.	.	.	.	16g/JJ	.	.	.	.	.	.	.	.	.	.
.	.	8d\L	.	16d/LL	.	4gg\	.	.	.	.	.	.	.	.
.	.	.	.	16d/	.	.	.	.	.	.	.	.	.	.
.	.	8d\	.	16g/	.	.	.	.	.	.	.	.	.	.
.	.	.	.	16g/JJ	.	.	.	.	.	.	.	.	.	.
.	.	8d\	.	16b/LL	.	4r	.	.	.	.	.	.	.	.
.	.	.	.	16b/	.	.	.	.	.	.	.	.	.	.
.	.	8d\J	.	16g/	.	.	.	.	.	.	.	.	.	.
.	.	.	.	16g/JJ	.	.	.	.	.	.	.	.	.	.
!	!	!	!	!	!	!LO:PB:g=original	!	!	!	!	!	!	!	!
=74	=74	=74	=74	=74	=74	=74	=74	=74	=74	=74	=74	=74	=74	=74
1r	.	8d\L	.	16d/LL	.	8g/	.	1r	.	1r	.	1r	1r	.
.	.	.	.	16d/	.	.	.	.	.	.	.	.	.	.
.	.	8d\	.	16g/	.	8r	.	.	.	.	.	.	.	.
.	.	.	.	16g/JJ	.	.	.	.	.	.	.	.	.	.
.	.	8d\	.	16b/LL	.	8a/	.	.	.	.	.	.	.	.
.	.	.	.	16b/	.	.	.	.	.	.	.	.	.	.
.	.	8d\J	.	16g/	.	8r	.	.	.	.	.	.	.	.
.	.	.	.	16g/JJ	.	.	.	.	.	.	.	.	.	.
.	.	8d\L	.	16d/LL	.	8b/	.	.	.	.	.	.	.	.
.	.	.	.	16d/	.	.	.	.	.	.	.	.	.	.
.	.	8d\	.	16g/	.	8r	.	.	.	.	.	.	.	.
.	.	.	.	16g/JJ	.	.	.	.	.	.	.	.	.	.
.	.	8d\	.	16b/LL	.	8cc#X\	.	.	.	.	.	.	.	.
.	.	.	.	16b/	.	.	.	.	.	.	.	.	.	.
.	.	8d\J	.	16g/	.	8r	.	.	.	.	.	.	.	.
.	.	.	.	16g/JJ	.	.	.	.	.	.	.	.	.	.
=75	=75	=75	=75	=75	=75	=75	=75	=75	=75	=75	=75	=75	=75	=75
!	!	!	!LO:DY:b:t=f.	!	!	!	!LO:DY:a:t=for&colon;.	!	!	!	!	!	!	!
2D\	.	8d\L	f	16d/LL	.	4dd\	f	2d/	.	2dd\	.	2dd\	2dd\	.
.	.	.	.	16d/	.	.	.	.	.	.	.	.	.	.
.	.	8d\	.	16f#/	.	.	.	.	.	.	.	.	.	.
.	.	.	.	16f#/JJ	.	.	.	.	.	.	.	.	.	.
.	.	8d\	.	16a/LL	.	8d/	.	.	.	.	.	.	.	.
.	.	.	.	16a/	.	.	.	.	.	.	.	.	.	.
.	.	8d\J	.	16dd/	.	8r	.	.	.	.	.	.	.	.
.	.	.	.	16dd/JJ	.	.	.	.	.	.	.	.	.	.
2r	.	8d\L	.	16ff#\LL	.	2r	.	2r	.	2r	.	2r	2r	.
.	.	.	.	16ff#\	.	.	.	.	.	.	.	.	.	.
.	.	8d\	.	16dd\	.	.	.	.	.	.	.	.	.	.
.	.	.	.	16dd\JJ	.	.	.	.	.	.	.	.	.	.
.	.	8d\	.	16a/LL	.	.	.	.	.	.	.	.	.	.
.	.	.	.	16a/	.	.	.	.	.	.	.	.	.	.
.	.	8d\J	.	16f#/	.	.	.	.	.	.	.	.	.	.
.	.	.	.	16f#/JJ	.	.	.	.	.	.	.	.	.	.
!LO:LB:g=original	!	!	!	!	!	!	!	!LO:LB:g=original	!	!	!	!	!	!
=76	=76	=76	=76	=76	=76	=76	=76	=76	=76	=76	=76	=76	=76	=76
!LO:TX:a:t=3	!	!	!LO:DY:b:t=p.	!	!	!	!	!LO:TX:a:t=3	!	!LO:TX:a:t=3	!	!LO:TX:a:t=3	!LO:TX:a:t=3	!
0r	.	8d\L	p	16d/LL	.	(2cccn\	.	0r	.	0r	.	0r	0r	.
.	.	.	.	16d/	.	.	.	.	.	.	.	.	.	.
.	.	8d\	.	16f#/	.	.	.	.	.	.	.	.	.	.
.	.	.	.	16f#/JJ	.	.	.	.	.	.	.	.	.	.
.	.	8d\	.	16a/LL	.	.	.	.	.	.	.	.	.	.
.	.	.	.	16a/	.	.	.	.	.	.	.	.	.	.
.	.	8d\J	.	16f#/	.	.	.	.	.	.	.	.	.	.
.	.	.	.	16f#/JJ	.	.	.	.	.	.	.	.	.	.
.	.	8d\L	.	16d/LL	.	4aa\)	.	.	.	.	.	.	.	.
.	.	.	.	16d/	.	.	.	.	.	.	.	.	.	.
.	.	8d\	.	16f#/	.	.	.	.	.	.	.	.	.	.
.	.	.	.	16f#/JJ	.	.	.	.	.	.	.	.	.	.
!	!	!	!	!LO:LB:g=original	!	!	!	!	!	!	!	!	!	!
.	.	8d\	.	16a/LL	.	4ryy	.	.	.	.	.	.	.	.
.	.	.	.	16a/	.	.	.	.	.	.	.	.	.	.
.	.	8d\J	.	16f#/	.	.	.	.	.	.	.	.	.	.
.	.	.	.	16f#/JJ	.	.	.	.	.	.	.	.	.	.
=77	=77	=77	=77	=77	=77	=77	=77	=77	=77	=77	=77	=77	=77	=77
.	.	8d\L	.	16d/LL	.	2bb\	.	.	.	.	.	.	.	.
.	.	.	.	16d/	.	.	.	.	.	.	.	.	.	.
.	.	8d\	.	16g/	.	.	.	.	.	.	.	.	.	.
.	.	.	.	16g/JJ	.	.	.	.	.	.	.	.	.	.
.	.	8d\	.	16b/LL	.	.	.	.	.	.	.	.	.	.
.	.	.	.	16b/	.	.	.	.	.	.	.	.	.	.
.	.	8d\J	.	16g/	.	.	.	.	.	.	.	.	.	.
.	.	.	.	16g/JJ	.	.	.	.	.	.	.	.	.	.
.	.	8d\L	.	16d/LL	.	4gg\	.	.	.	.	.	.	.	.
.	.	.	.	16d/	.	.	.	.	.	.	.	.	.	.
.	.	8d\	.	16g/	.	.	.	.	.	.	.	.	.	.
.	.	.	.	16g/JJ	.	.	.	.	.	.	.	.	.	.
.	.	8d\	.	16b/LL	.	4r	.	.	.	.	.	.	.	.
.	.	.	.	16b/	.	.	.	.	.	.	.	.	.	.
.	.	8d\J	.	16g/	.	.	.	.	.	.	.	.	.	.
.	.	.	.	16g/JJ	.	.	.	.	.	.	.	.	.	.
=78	=78	=78	=78	=78	=78	=78	=78	=78	=78	=78	=78	=78	=78	=78
1r	.	8d\L	.	16d/LL	.	8g/	.	1r	.	1r	.	1r	1r	.
.	.	.	.	16d/	.	.	.	.	.	.	.	.	.	.
.	.	8d\	.	16g/	.	8r	.	.	.	.	.	.	.	.
.	.	.	.	16g/JJ	.	.	.	.	.	.	.	.	.	.
.	.	8d\	.	16b/LL	.	8a/	.	.	.	.	.	.	.	.
.	.	.	.	16b/	.	.	.	.	.	.	.	.	.	.
.	.	8d\J	.	16g/	.	8r	.	.	.	.	.	.	.	.
.	.	.	.	16g/JJ	.	.	.	.	.	.	.	.	.	.
.	.	8d\L	.	16d/LL	.	8b/	.	.	.	.	.	.	.	.
.	.	.	.	16d/	.	.	.	.	.	.	.	.	.	.
.	.	8d\	.	16g/	.	8r	.	.	.	.	.	.	.	.
.	.	.	.	16g/JJ	.	.	.	.	.	.	.	.	.	.
.	.	8d\	.	16b/LL	.	8cc#X\	.	.	.	.	.	.	.	.
.	.	.	.	16b/	.	.	.	.	.	.	.	.	.	.
.	.	8d\J	.	16g/	.	8r	.	.	.	.	.	.	.	.
.	.	.	.	16g/JJ	.	.	.	.	.	.	.	.	.	.
!	!	!	!	!	!	!	!	!	!	!LO:LB:g=original	!	!	!LO:LB:g=original	!
=79	=79	=79	=79	=79	=79	=79	=79	=79	=79	=79	=79	=79	=79	=79
*tremolo	*	*	*	*tremolo	*	*tremolo	*	*	*	*	*	*	*	*
!	!LO:DY:b:t=p.	!	!	!	!LO:DY:b:t=p.p.	!	!LO:DY:b:t=p.	!	!LO:DY:a	!	!	!	!	!
8D\L	p	8d\L	pp	16d/LL	pp	16dd\LL	p	1d	p	1dd	.	2dd\	2dd\	.
.	.	.	.	16d/	.	16dd\	.	.	.	.	.	.	.	.
8D\	.	8d\	.	16d/	.	16dd\	.	.	.	.	.	.	.	.
.	.	.	.	16d/	.	16dd\	.	.	.	.	.	.	.	.
8D\	.	8d\	.	16d/	.	16dd\	.	.	.	.	.	.	.	.
.	.	.	.	16d/	.	16dd\	.	.	.	.	.	.	.	.
8D\J	.	8d\J	.	16d/	.	16dd\	.	.	.	.	.	.	.	.
.	.	.	.	16d/JJ	.	16dd\JJ	.	.	.	.	.	.	.	.
8D\L	.	8d\L	.	16cc#\LL	.	16ee\LL	.	.	.	.	.	2cc#\	2ee\	.
.	.	.	.	16cc#\	.	16ee\	.	.	.	.	.	.	.	.
8D\	.	8d\	.	16cc#\	.	16ee\	.	.	.	.	.	.	.	.
.	.	.	.	16cc#\	.	16ee\	.	.	.	.	.	.	.	.
8D\	.	8d\	.	16cc#\	.	16ee\	.	.	.	.	.	.	.	.
.	.	.	.	16cc#\	.	16ee\	.	.	.	.	.	.	.	.
8D\J	.	8d\J	.	16cc#\	.	16ee\	.	.	.	.	.	.	.	.
.	.	.	.	16cc#\JJ	.	16ee\JJ	.	.	.	.	.	.	.	.
!	!	!LO:LB:g=original	!	!	!	!LO:LB:g=original	!	!	!	!	!	!	!	!
=80	=80	=80	=80	=80	=80	=80	=80	=80	=80	=80	=80	=80	=80	=80
!	!	!	!	!	!LO:HP:b:t=Cres.	!	!LO:HP:b:t=Cres.	!	!LO:HP:t=Cres	!	!	!	!	!
8D\L	.	8d\L	.	16dd\LL	<	16ff#\LL	<	1d	<[	1dd	.	2dd\	2ff#\	.
.	.	.	.	16dd\	.	16ff#\	.	.	.	.	.	.	.	.
8D\	.	8d\	.	16dd\	.	16ff#\	.	.	.	.	.	.	.	.
.	.	.	.	16dd\	.	16ff#\	.	.	.	.	.	.	.	.
8D\	.	8d\	.	16dd\	.	16ff#\	.	.	.	.	.	.	.	.
.	.	.	.	16dd\	.	16ff#\	.	.	.	.	.	.	.	.
8D\J	.	8d\J	.	16dd\	.	16ff#\	.	.	.	.	.	.	.	.
.	.	.	.	16dd\JJ	.	16ff#\JJ	.	.	.	.	.	.	.	.
8D\L	.	8d\L	.	16ee\LL	[	16gg\LL	[	.	.	.	.	2ee\	2gg\	.
.	.	.	.	16ee\	.	16gg\	.	.	.	.	.	.	.	.
8D\	.	8d\	.	16ee\	.	16gg\	.	.	.	.	.	.	.	.
.	.	.	.	16ee\	.	16gg\	.	.	.	.	.	.	.	.
8D\	.	8d\	.	16ee\	.	16gg\	.	.	.	.	.	.	.	.
.	.	.	.	16ee\	.	16gg\	.	.	.	.	.	.	.	.
8D\J	.	8d\J	.	16ee\	.	16gg\	.	.	.	.	.	.	.	.
.	.	.	.	16ee\JJ	.	16gg\JJ	.	.	.	.	.	.	.	.
=81	=81	=81	=81	=81	=81	=81	=81	=81	=81	=81	=81	=81	=81	=81
!	!LO:HP:b:t=Cres&colon;	!	!LO:HP:b:t=Cres.	!	!	!	!	!	!LO:DY:a	!	!	!	!	!
8D\L	<	8d\L	<	16ff#\LL	.	16aa\LL	.	1d	ff	1dd	.	2ff#\	2aa\	.
.	.	.	.	16ff#\	.	16aa\	.	.	.	.	.	.	.	.
8D\	.	8d\	.	16ff#\	.	16aa\	.	.	.	.	.	.	.	.
.	.	.	.	16ff#\	.	16aa\	.	.	.	.	.	.	.	.
8D\	.	8d\	.	16ff#\	.	16aa\	.	.	.	.	.	.	.	.
.	.	.	.	16ff#\	.	16aa\	.	.	.	.	.	.	.	.
8D\J	.	8d\J	.	16ff#\	.	16aa\	.	.	.	.	.	.	.	.
.	.	.	.	16ff#\JJ	.	16aa\JJ	.	.	.	.	.	.	.	.
8D\L	[	8d\L	[	16gg\LL	.	16bb\LL	.	.	.	.	.	4gg\	4bb\	.
.	.	.	.	16gg\	.	16bb\	.	.	.	.	.	.	.	.
8D\	.	8d\	.	16gg\	.	16bb\	.	.	.	.	.	.	.	.
.	.	.	.	16gg\JJ	.	16bb\JJ	.	.	.	.	.	.	.	.
8D\	.	8d\	.	16ee\LL	.	16ccc#\LL	.	.	.	.	.	4ee\	4ccc#\	.
.	.	.	.	16ee\	.	16ccc#\	.	.	.	.	.	.	.	.
8D\J	.	8d\J	.	16ee\	.	16ccc#\	.	.	.	.	.	.	.	.
.	.	.	.	16ee\JJ	.	16ccc#\JJ	.	.	.	.	.	.	.	.
*	*	*	*	*	*	*Xtremolo	*	*	*	*	*	*	*	*
*	*	*	*	*Xtremolo	*	*	*	*	*	*	*	*	*	*
*	*	*	*	*Xtremolo	*	*Xtremolo	*	*	*	*	*	*	*	*
!	!	!	!	!LO:LB:g=original	!	!	!	!	!	!	!	!	!	!
=82	=82	=82	=82	=82	=82	=82	=82	=82	=82	=82	=82	=82	=82	=82
!	!	!	!LO:DY:b:t=f.	!	!LO:DY:b:t=f.	!	!	!	!	!	!	!	!	!
8D\L	.	8d\L	f	16ff#\LL	f	4ddd\	.	4d/	.	4dd\	.	4ff#\	4ddd\	.
.	.	.	.	16ff#\	.	.	.	.	.	.	.	.	.	.
8D\	.	8d\	.	16dd\	.	.	.	.	.	.	.	.	.	.
.	.	.	.	16dd\JJ	.	.	.	.	.	.	.	.	.	.
!	!	!	!	!	!	!	!LO:DY:b:t=f.	!	!	!	!	!	!	!
8D\	.	8d\	.	16bb\LL	.	16ddd\LL	f	4r	.	4r	.	4gg\	4bb\	.
.	.	.	.	16bb\	.	16ccc#\	.	.	.	.	.	.	.	.
8D\J	.	8d\J	.	16gg\	.	(16bb\	.	.	.	.	.	.	.	.
.	.	.	.	16gg\JJ	.	16aa\JJ)	.	.	.	.	.	.	.	.
8D\L	.	8d\L	.	16ff#\LL	.	4ddd\	.	4d/	.	4dd\	.	4ff#\	4aa\	.
.	.	.	.	16ff#\	.	.	.	.	.	.	.	.	.	.
8D\	.	8d\	.	16dd\	.	.	.	.	.	.	.	.	.	.
.	.	.	.	16dd\JJ	.	.	.	.	.	.	.	.	.	.
8D\	.	8d\	.	16bb\LL	.	16ddd\LL	.	4r	.	4r	.	4gg\	4bb\	.
.	.	.	.	16bb\	.	(16ccc#\	.	.	.	.	.	.	.	.
8D\J	.	8d\J	.	16gg\	.	16bb\)	.	.	.	.	.	.	.	.
.	.	.	.	16gg\JJ	.	16aa\JJ	.	.	.	.	.	.	.	.
*Xtremolo	*	*Xtremolo	*	*	*	*	*	*	*	*	*	*	*	*
=83	=83	=83	=83	=83	=83	=83	=83	=83	=83	=83	=83	=83	=83	=83
8D\L	.	8d\L	.	4ff#\	.	4ddd\	.	2d/	.	2dd\	.	2ff#\	2aa\	.
8D\	.	8d\	.	.	.	.	.	.	.	.	.	.	.	.
8E\	.	8e\	.	8.ee\L	.	8.ccc#\L	.	.	.	.	.	.	.	.
!	!LO:DY:b:t=f.	!	!	!	!	!	!	!	!	!	!	!	!	!
8E\J	f	8e\J	.	.	.	.	.	.	.	.	.	.	.	.
.	.	.	.	16dd\Jk	.	16bb\Jk	.	.	.	.	.	.	.	.
8F#\L	.	8f#\L	.	8.cc#\L	.	8.aa\L	.	2r	.	2r	.	2r	2r	.
8F#\	.	8f#\	.	.	.	.	.	.	.	.	.	.	.	.
.	.	.	.	16b\Jk	.	16gg\Jk	.	.	.	.	.	.	.	.
8G\	.	8g\	.	8.a\L	.	8.ff#\L	.	.	.	.	.	.	.	.
8G\J	.	8g\J	.	.	.	.	.	.	.	.	.	.	.	.
.	.	.	.	16g\Jk	.	16ee\Jk	.	.	.	.	.	.	.	.
=84	=84	=84	=84	=84	=84	=84	=84	=84	=84	=84	=84	=84	=84	=84
*tremolo	*	*tremolo	*	*	*	*	*	*	*	*	*	*	*	*
8A\L	.	8a\L	.	2f#/	.	2dd\	.	2A/	.	2a/	.	2dd\	2ff#\	.
8A\	.	8a\	.	.	.	.	.	.	.	.	.	.	.	.
8A\	.	8a\	.	.	.	.	.	.	.	.	.	.	.	.
8A\J	.	8a\J	.	.	.	.	.	.	.	.	.	.	.	.
!	!	!	!	!LO:TX:a:t=t	!	!	!	!	!	!	!	!	!LO:TX:a:t=t	!
8AA\L	.	8A/L	.	2c#/	.	2ee\	.	2A/	.	2a/	.	2cc#\	2ee\	.
8AA\	.	8A/	.	.	.	.	.	.	.	.	.	.	.	.
8AA\	.	8A/	.	.	.	.	.	.	.	.	.	.	.	.
8AA\J	.	8A/J	.	.	.	.	.	.	.	.	.	.	.	.
=85	=85	=85	=85	=85	=85	=85	=85	=85	=85	=85	=85	=85	=85	=85
!	!LO:DY:b:t=p.	!	!LO:DY:b:t=f.	!	!	!	!	!	!	!	!	!	!	!
8D\L	p	8d\L	f	8d/	.	8dd\	.	4d/	.	4dd\	.	4dd\	4dd\	.
8D\	.	8d\	.	8r	.	8r	.	.	.	.	.	.	.	.
8D\	.	8d\	.	8ff#\	.	8aa\	.	4r	.	4r	.	4r	4r	.
8D\J	.	8d\J	.	8r	.	8r	.	.	.	.	.	.	.	.
!	!	!	!LO:DY:b:t=p.	!	!	!LO:LB:g=original	!	!	!	!	!	!	!	!
8D\L	.	8c#\L	p	8ee\	.	8gg\	.	2r	.	2r	.	2r	2r	.
8D\	.	8c#\	.	8r	.	8r	.	.	.	.	.	.	.	.
8D\	.	8c#\	.	8cc#\	.	8ee\	.	.	.	.	.	.	.	.
8D\J	.	8c#\J	.	8r	.	8r	.	.	.	.	.	.	.	.
*Xtremolo	*	*Xtremolo	*	*	*	*	*	*	*	*	*	*	*	*
!LO:LB:g=original	!	!	!	!	!	!	!	!LO:LB:g=original	!	!LO:LB:g=original	!	!	!	!
=86	=86	=86	=86	=86	=86	=86	=86	=86	=86	=86	=86	=86	=86	=86
!	!	!	!	!	!LO:DY:b:t=f.	!	!	!	!	!	!	!	!	!
8D\L	.	8d\L	.	8dd\	f	8ff#\	.	2d/	.	2dd\	.	2dd\	2ff#\	.
8D\	.	8d\	.	8r	.	8r	.	.	.	.	.	.	.	.
!	!LO:DY:b:t=f.	!	!	!	!	!	!	!	!	!	!	!	!	!
8d\	f	8dd\	.	8d/ 8a 8ff#	.	8d/ 8a 8ff#	.	.	.	.	.	.	.	.
8d\J	.	8dd\J	.	8r	.	8r	.	.	.	.	.	.	.	.
!	!	!	!	!	!	!	!	!	!	!	!	!	!LO:TX:a:t=t	!
8G\L	.	8g\L	.	8g/ 8b 8ee	.	8g/ 8b 8ee	.	4r	.	4r	.	4b\	2ee\	.
8G\	.	8g\	.	8r	.	8r	.	.	.	.	.	.	.	.
8A\	.	8a\	.	8g/ 8b 8ee	.	8a/ 8cc# 8ee	.	4A/	.	4a/	.	4cc#\	.	.
8A\J	.	8a\J	.	8r	.	8r	.	.	.	.	.	.	.	.
!	!	!	!	!	!	!	!	!	!	!	!	!LO:LB:g=original	!LO:LB:g=original	!
=87	=87	=87	=87	=87	=87	=87	=87	=87	=87	=87	=87	=87	=87	=87
*tremolo	*	*tremolo	*	*	*	*	*	*	*	*	*	*	*	*
!	!LO:DY:b:t=p&colon;	!	!LO:DY:b:t=p.	!	!LO:DY:b:t=p.	!	!	!	!	!	!	!	!	!
8D\L	p	8d\L	p	8d/ 8dd	p	8d/ 8dd	.	4d/	.	4dd\	.	4dd\	4dd\	.
!	!	!	!	!	!	!	!LO:DY:b:t=p.	!	!	!	!	!	!	!
8D\	.	8d\	.	8r	.	8r	p	.	.	.	.	.	.	.
!	!	!	!	!LO:LB:g=original	!	!	!	!	!	!	!	!	!	!
8D\	.	8d\	.	8ff#\	.	8aa\	.	4r	.	4r	.	4r	4r	.
8D\J	.	8d\J	.	8r	.	8r	.	.	.	.	.	.	.	.
8D\L	.	8d\L	.	8ee\	.	8gg\	.	2r	.	2r	.	2r	2r	.
8D\	.	8d\	.	8r	.	8r	.	.	.	.	.	.	.	.
8D\	.	8d\	.	8cc#\	.	8ee\	.	.	.	.	.	.	.	.
8D\J	.	8d\J	.	8r	.	8r	.	.	.	.	.	.	.	.
*	*	*Xtremolo	*	*	*	*	*	*	*	*	*	*	*	*
*Xtremolo	*	*	*	*	*	*	*	*	*	*	*	*	*	*
*Xtremolo	*	*Xtremolo	*	*	*	*	*	*	*	*	*	*	*	*
!	!	!LO:LB:g=original	!	!	!	!	!	!	!	!	!	!	!	!
=88	=88	=88	=88	=88	=88	=88	=88	=88	=88	=88	=88	=88	=88	=88
8D\L	.	8d\L	.	8dd\	.	8ff#\	.	2d/	.	2dd\	.	2dd\	2ff#\	.
8D\	.	8d\	.	8r	.	8r	.	.	.	.	.	.	.	.
!	!LO:DY:b:t=f.	!	!LO:DY:b:t=f.	!	!	!	!	!	!	!	!	!	!	!
8d\	f	8dd\	f	8d/ 8a 8ff#	.	8d/ 8a 8ff#	.	.	.	.	.	.	.	.
8d\J	.	8dd\J	.	8r	.	8r	.	.	.	.	.	.	.	.
8G\L	.	8g\L	.	8g/ 8b 8ee	.	8g/ 8b 8ee	.	4r	.	4r	.	4b\	2ee\	.
8G\	.	8g\	.	8r	.	8r	.	.	.	.	.	.	.	.
8A\	.	8a\	.	8a/ 8cc# 8ee	.	8a/ 8cc# 8ee	.	4A/	.	4a/	.	4cc#\	.	.
8A\J	.	8a\J	.	8r	.	8r	.	.	.	.	.	.	.	.
=89	=89	=89	=89	=89	=89	=89	=89	=89	=89	=89	=89	=89	=89	=89
4D\	.	4d\	.	4d/ 4a 4ff#	.	4d/ 4a 4ff#	.	4d/	.	4dd\	.	4dd\	4dd\	.
4r	.	4r	.	4r	.	4r	.	4r	.	4r	.	4r	4r	.
4D\	.	4d\	.	4d/ 4a 4ff#	.	4d/ 4a 4ff#	.	4d/	.	4dd\	.	2r	4dd\	.
4r	.	4r	.	4r	.	4r	.	4r	.	4r	.	.	4r	.
=90	=90	=90	=90	=90	=90	=90	=90	=90	=90	=90	=90	=90	=90	=90
*	*	*	*	*^	*	*	*	*	*	*	*	*	*	*
!	!	!	!	!	!	!	!	!	!LO:TX:b:i:t=Largo Tacet	!	!LO:TX:b:i:t=Largo Tacet	!	!LO:TX:b:i:t=problem: zbędne powtórzenie taktów 88-89	!LO:TX:b:i:t=Largo Tacet.&colon;	!
1D	.	1d	.	2.ff#/	2.a\	.	2d/ 2a 2ff#	.	1d	.	1dd	.	2dd\	1dd	.
.	.	.	.	.	.	.	2r	.	.	.	.	.	4b\	.	.
.	.	.	.	4raa	4rc	.	.	.	.	.	.	.	4cc#\	.	.
*	*	*	*	*v	*v	*	*	*	*	*	*	*	*	*	*
=91	=91	=91	=91	=91	=91	=91	=91	=91	=91	=91	=91	=91	=91	=91
!LO:TX:b:i:t=problem: partia kończy się w takcie 90	!	!LO:TX:b:i:t=problem: partia kończy się w takcie 90	!	!LO:TX:b:i:t=problem: partia kończy się w takcie 90	!	!LO:TX:b:i:t=problem: partia kończy się w takcie 90	!	!LO:TX:a:t=P:problem= partia kończy się w takcie 90	!	!LO:TX:a:t=P:problem= partia kończy się w takcie 90	!	!	!LO:TX:a:t=P:problem= partia kończy się w takcie 90	!
1ryy	.	1ryy	.	1ryy	.	1ryy	.	1ryy	.	1ryy	.	4dd\	1ryy	.
.	.	.	.	.	.	.	.	.	.	.	.	4r	.	.
.	.	.	.	.	.	.	.	.	.	.	.	4dd\	.	.
.	.	.	.	.	.	.	.	.	.	.	.	4r	.	.
=92	=92	=92	=92	=92	=92	=92	=92	=92	=92	=92	=92	=92	=92	=92
!	!	!	!	!	!	!	!	!	!	!	!	!LO:TX:b:i:t=Largo Tacet.:	!	!
1ryy	.	1ryy	.	1ryy	.	1ryy	.	1ryy	.	1ryy	.	1dd	1ryy	.
=:|!	=:|!	=:|!	=:|!	=:|!	=:|!	=:|!	=:|!	=:|!	=:|!	=:|!	=:|!	=:|!	=:|!	=:|!
*-	*-	*-	*-	*-	*-	*-	*-	*-	*-	*-	*-	*-	*-	*-
!!!system-decoration: [(g1)][(g2)][(g3)]
!!!ENC: Anna Matuszewska
!!!END: 2020-11-16
!!!ENC: Mateusz Solarz
!!!END: 2020-06-08
